!!!COM: Haydn, Franz Joseph
!!!OPR: Symphony in C Major
!!!OTL: Affettuoso 
!!!OMV: 2
!!!SCT: H I:97
!!!SCA: Thematisch-bibliographisches Werkevererzeichnis (A. van Hoboken)
!!!YOR: Dover Edition
!!!EED: Frances Bennion
!!!ENC: Frances Bennion
!!!CDT: 1732/3/31/-1809/5/31/
!!!OCY: Österreich
!!!YEC: Copyright (c) 1994, 2000 Center for Computer Assisted Research in the Humanities
!!!YEM: Rights to all derivative editions reserved.
!!!YEM: Refer to licensing agreement for further details.
!!!YEN: United States of America
**kern	**kern	**kern	**kern	**kern	**kern	**kern	**kern	**kern	**kern	**kern	**kern	**kern	**kern	**kern	**kern
*k[b-]	*k[]	*k[b-]	*k[b-]	*k[b-]	*k[b-]	*k[b-]	*k[b-]	*k[b-]	*k[b-]	*k[b-]	*k[b-]	*k[b-]	*k[]	*k[]	*k[]
*F:	*F:	*F:	*F:	*F:	*F:	*F:	*F:	*F:	*F:	*F:	*F:	*F:	*F:	*F:	*F:
*clefF	*clefF	*clefF4	*clefF	*clefF	*clefC3	*clefF4	*clefF4	*clefF	*clefF	*clefF	*clefF4	*clefF4	*clefF	*clefF	*clefF
*M4/4	*M4/4	*M4/4	*M4/4	*M4/4	*M4/4	*M4/4	*M4/4	*M4/4	*M4/4	*M4/4	*M4/4	*M4/4	*M4/4	*M4/4	*M4/4
*tb32	*tb32	*tb32	*tb32	*tb32	*tb32	*tb32	*tb32	*tb32	*tb32	*tb32	*tb32	*tb32	*tb32	*tb32	*tb32
=0-	=0-	=0-	=0-	=0-	=0-	=0-	=0-	=0-	=0-	=0-	=0-	=0-	=0-	=0-	=0-
2.r	2.r	2.r	2.r	2.r	2.r	2.r	2.r	2.r	2.r	2.r	2.r	2.r	2.r	2.r	2.r
4r	4r	4r	8.a	4r	4r	4r	4r	4r	4r	4r	4r	4r	4r	4r	4r
.	.	.	16g	.	.	.	.	.	.	.	.	.	.	.	.
=1	=1	=1	=1	=1	=1	=1	=1	=1	=1	=1	=1	=1	=1	=1	=1
1r	1r	1r	8f	4r	4A	4F	4F	1r	1r	1r	1r	1r	1r	1r	1r
.	.	.	8r	.	.	.	.	.	.	.	.	.	.	.	.
.	.	.	8.cc	8.a	2r	4r	4r	.	.	.	.	.	.	.	.
.	.	.	16b-	16g	.	.	.	.	.	.	.	.	.	.	.
.	.	.	8a	8f	.	4F	4F	.	.	.	.	.	.	.	.
.	.	.	8r	8r	.	.	.	.	.	.	.	.	.	.	.
.	.	.	8.ff	8.dd	8.B-	4r	4r	.	.	.	.	.	.	.	.
.	.	.	16dd	16b-	16d	.	.	.	.	.	.	.	.	.	.
=2	=2	=2	=2	=2	=2	=2	=2	=2	=2	=2	=2	=2	=2	=2	=2
1r	1r	1r	4..cc	4..a	4f	4F	4F	1r	1r	1r	1r	1r	1r	1r	1r
.	.	.	.	.	4F	4FF	4FF	.	.	.	.	.	.	.	.
.	.	.	32dd	32b-	.	.	.	.	.	.	.	.	.	.	.
.	.	.	32b-	32g	.	.	.	.	.	.	.	.	.	.	.
.	.	.	8a	8f	4F	4FF	4FF	.	.	.	.	.	.	.	.
.	.	.	8r	8r	.	.	.	.	.	.	.	.	.	.	.
.	.	.	4g	4c	4B-	4B-	4B-	.	.	.	.	.	.	.	.
=3	=3	=3	=3	=3	=3	=3	=3	=3	=3	=3	=3	=3	=3	=3	=3
1r	1r	1r	4f	2.c	4A	4A	4A	1r	1r	1r	1r	1r	1r	1r	1r
.	.	.	4e	.	4G	4G	4G	.	.	.	.	.	.	.	.
.	.	.	4d	.	4F	4F	4F	.	.	.	.	.	.	.	.
.	.	.	4g	4B	4G	4G	4G	.	.	.	.	.	.	.	.
=4	=4	=4	=4	=4	=4	=4	=4	=4	=4	=4	=4	=4	=4	=4	=4
4r	1r	1r	4c	4c	4C	4C	4C	4r	4r	4r	4r	4r	4r	4r	1r
4ccc	.	.	2r	2.r	2.r	2.r	2.r	4ccc	4gg	4ee	4e	4c	4g	4G	.
4ccc	.	.	.	.	.	.	.	4ccc	4gg	4ee	4e	4c	4g	4G	.
4r	.	.	8.a	.	.	.	.	4r	4r	4r	4r	4r	4r	4r	.
.	.	.	16g	.	.	.	.	.	.	.	.	.	.	.	.
=5	=5	=5	=5	=5	=5	=5	=5	=5	=5	=5	=5	=5	=5	=5	=5
1r	1r	1r	8f	8A	4f	4F	4F	1r	1r	1r	1r	1r	1r	1r	1r
.	.	.	8r	8r	.	.	.	.	.	.	.	.	.	.	.
.	.	.	8.cc	8.a	4r	4r	4r	.	.	.	.	.	.	.	.
.	.	.	16b-	16g	.	.	.	.	.	.	.	.	.	.	.
.	.	.	8a	8f	4f	4F	4F	.	.	.	.	.	.	.	.
.	.	.	8r	8r	.	.	.	.	.	.	.	.	.	.	.
.	.	.	8.aa	8.ff	4r	4r	4r	.	.	.	.	.	.	.	.
.	.	.	16gg	16ee	.	.	.	.	.	.	.	.	.	.	.
=6	=6	=6	=6	=6	=6	=6	=6	=6	=6	=6	=6	=6	=6	=6	=6
1r	1r	1r	2ff	2dd	4r	1r	1r	1r	1r	1r	1r	1r	1r	1r	1r
.	.	.	.	.	4g#	.	.	.	.	.	.	.	.	.	.
.	.	.	4ee	[2cc	4a	.	.	.	.	.	.	.	.	.	.
.	.	.	4ee-	.	4f#	.	.	.	.	.	.	.	.	.	.
=7	=7	=7	=7	=7	=7	=7	=7	=7	=7	=7	=7	=7	=7	=7	=7
1r	1r	1r	4dd	2cc]	2g	1r	1r	1r	1r	1r	1r	1r	1r	1r	1r
.	.	.	4ee	.	.	.	.	.	.	.	.	.	.	.	.
.	.	.	4ff	2b	2G	.	.	.	.	.	.	.	.	.	.
.	.	.	4gg	.	.	.	.	.	.	.	.	.	.	.	.
=8	=8	=8	=8	=8	=8	=8	=8	=8	=8	=8	=8	=8	=8	=8	=8
4r	1r	1r	4cc	4cc	4c	1r	1r	4r	4r	4r	4r	4r	4r	4r	1r
4ccc	.	.	2r	2.r	2.r	.	.	4ccc	4gg	4ee	4e	4c	4g	4G	.
4ccc	.	.	.	.	.	.	.	4ccc	4gg	4ee	4e	4c	4g	4G	.
4r	.	.	8.a	.	.	.	.	4r	4r	4r	4r	4r	4r	4r	.
.	.	.	16g	.	.	.	.	.	.	.	.	.	.	.	.
=9	=9	=9	=9	=9	=9	=9	=9	=9	=9	=9	=9	=9	=9	=9	=9
1r	1r	1r	8f	8A	8A	4F	4F	1r	1r	1r	4r	4r	1r	1r	1r
.	.	.	8r	8r	4.r	.	.	.	.	.	.	.	.	.	.
.	.	.	8.cc	8.a	.	4r	4r	.	.	.	8.c	8.A	.	.	.
.	.	.	16b-	16g	.	.	.	.	.	.	16B-	16G	.	.	.
.	.	.	8a	8f	8c	4F	4F	.	.	.	8A	8F	.	.	.
.	.	.	8r	8r	8r	.	.	.	.	.	8r	8r	.	.	.
.	.	.	8.ff	8.dd	8.B-	4r	4r	.	.	.	8.f	8.d	.	.	.
.	.	.	16dd	16b-	16d	.	.	.	.	.	16d	16B-	.	.	.
=10	=10	=10	=10	=10	=10	=10	=10	=10	=10	=10	=10	=10	=10	=10	=10
1r	1r	1r	4..cc	4..a	8f	4F	4F	1r	1r	1r	4..c	4..A	1r	1r	1r
.	.	.	.	.	8F	.	.	.	.	.	.	.	.	.	.
.	.	.	.	.	4F	4FF	4FF	.	.	.	.	.	.	.	.
.	.	.	32dd	32b-	.	.	.	.	.	.	32d	32B-	.	.	.
.	.	.	32b-	32g	.	.	.	.	.	.	32B-	32G	.	.	.
.	.	.	8a	8f	4F	4FF	4FF	.	.	.	8A	8F	.	.	.
.	.	.	8r	8r	.	.	.	.	.	.	4.r	4.r	.	.	.
.	.	.	4g	4c	4B-	4B-	4B-	.	.	.	.	.	.	.	.
=11	=11	=11	=11	=11	=11	=11	=11	=11	=11	=11	=11	=11	=11	=11	=11
1r	1r	1r	4f	2.c	4A	4A	4A	1r	1r	1r	1r	1r	1r	1r	1r
.	.	.	4e	.	4G	4G	4G	.	.	.	.	.	.	.	.
.	.	.	4d	.	4F	4F	4F	.	.	.	.	.	.	.	.
.	.	.	4g	4B	4G	4G	4G	.	.	.	.	.	.	.	.
=12	=12	=12	=12	=12	=12	=12	=12	=12	=12	=12	=12	=12	=12	=12	=12
4r	1r	1r	4c	4c	4C	4C	4C	4r	4r	4r	4r	4r	4r	4r	1r
4ccc	.	.	2r	2r	2.r	2.r	2.r	4ccc	4gg	4ee	4e	4c	4g	4G	.
4ccc	.	.	.	.	.	.	.	4ccc	4gg	4ee	4e	4c	4g	4G	.
4r	.	.	8.a	8.c	.	.	.	4r	4r	4r	4r	4r	4r	4r	.
.	.	.	16g	16B-	.	.	.	.	.	.	.	.	.	.	.
=13	=13	=13	=13	=13	=13	=13	=13	=13	=13	=13	=13	=13	=13	=13	=13
2.r	1r	1r	8f	8A	4c	4F	4F	2.r	2.r	1r	4r	4r	1r	1r	1r
.	.	.	8r	8r	.	.	.	.	.	.	.	.	.	.	.
.	.	.	8.cc	8.a	4r	4r	4r	.	.	.	8.c	8.A	.	.	.
.	.	.	16b-	16g	.	.	.	.	.	.	16B-	16G	.	.	.
.	.	.	8a	8f	4c	4F	4F	.	.	.	8A	8F	.	.	.
.	.	.	8r	8r	.	.	.	.	.	.	4.r	4.r	.	.	.
8.aa	.	.	8.aa	8.ff	4r	4r	4r	8.aa	8.ff	.	.	.	.	.	.
16gg	.	.	16gg	16ee	.	.	.	16gg	16ee	.	.	.	.	.	.
=14	=14	=14	=14	=14	=14	=14	=14	=14	=14	=14	=14	=14	=14	=14	=14
2ff	1r	1r	2ff	2dd	4r	1r	1r	2ff	2dd	4r	1r	1r	1r	1r	1r
.	.	.	.	.	4g#	.	.	.	.	4g#	.	.	.	.	.
4ee	.	.	4ee	[2cc	4a	.	.	4ee	[2cc	4a	.	.	.	.	.
4ee-	.	.	4ee-	.	4f#	.	.	4ee-	.	4f#	.	.	.	.	.
=15	=15	=15	=15	=15	=15	=15	=15	=15	=15	=15	=15	=15	=15	=15	=15
4dd	1r	1r	4dd	2cc]	2g	1r	1r	4dd	2cc]	1g	1r	1r	1r	1r	1r
4ee	.	.	4ee	.	.	.	.	4ee	.	.	.	.	.	.	.
4ff	.	.	4ff	2b	2G	.	.	4ff	2b	.	.	.	.	.	.
4gg	.	.	4gg	.	.	.	.	4gg	.	.	.	.	.	.	.
=16	=16	=16	=16	=16	=16	=16	=16	=16	=16	=16	=16	=16	=16	=16	=16
4cc	1r	1r	4cc	4cc	4c	2.r	2.r	4cc	4cc	4c	4r	4r	4r	4r	1r
4ccc	.	.	2.r	2r	2r	.	.	4ccc	4gg	4ee	4e	4c	4g	4G	.
4ccc	.	.	.	.	.	.	.	4ccc	4gg	4ee	4e	4c	4g	4G	.
4r	.	.	.	4cc	8.E	8.C	8.C	4r	4r	4r	4r	4r	4r	4r	.
.	.	.	.	.	16F	16D	16D	.	.	.	.	.	.	.	.
=17	=17	=17	=17	=17	=17	=17	=17	=17	=17	=17	=17	=17	=17	=17	=17
1r	1r	1r	[1cc	8b-	8G	8E	8E	1r	1r	1r	1r	1r	1r	1r	1r
.	.	.	.	8r	8r	8r	8r	.	.	.	.	.	.	.	.
.	.	.	.	8.b-	8.g	8.E	8.E	.	.	.	.	.	.	.	.
.	.	.	.	16a	16f	16F	16F	.	.	.	.	.	.	.	.
.	.	.	.	8g	8e	8G	8G	.	.	.	.	.	.	.	.
.	.	.	.	8r	8r	8r	8r	.	.	.	.	.	.	.	.
.	.	.	.	8.g	8.e	8.G	8.G	.	.	.	.	.	.	.	.
.	.	.	.	16f	16f	16A	16A	.	.	.	.	.	.	.	.
=18	=18	=18	=18	=18	=18	=18	=18	=18	=18	=18	=18	=18	=18	=18	=18
1r	1r	1r	4cc]	2e	2g	2B-	2B-	1r	1r	1r	1r	1r	1r	1r	1r
.	.	.	8.dd	.	.	.	.	.	.	.	.	.	.	.	.
.	.	.	16cc	.	.	.	.	.	.	.	.	.	.	.	.
.	.	.	8cc	8f	8a	8A	8A	.	.	.	.	.	.	.	.
.	.	.	8r	8r	8r	8r	8r	.	.	.	.	.	.	.	.
.	.	.	8.ff	[4f	4cc	4A	4A	.	.	.	.	.	.	.	.
.	.	.	16ee-	.	.	.	.	.	.	.	.	.	.	.	.
=19	=19	=19	=19	=19	=19	=19	=19	=19	=19	=19	=19	=19	=19	=19	=19
1r	1r	1r	8dd	8f]	8dd	8B-	8B-	1r	1r	1r	1r	1r	1r	1r	1r
.	.	.	8r	8r	8r	8r	8r	.	.	.	.	.	.	.	.
.	.	.	8.dd	2f	8.B-	8.B-	8.B-	.	.	.	.	.	.	.	.
.	.	.	16cc	.	16c	16c	16c	.	.	.	.	.	.	.	.
.	.	.	8.b-	.	8.d	8.d	8.d	.	.	.	.	.	.	.	.
.	.	.	16a	.	16c	16c	16c	.	.	.	.	.	.	.	.
.	.	.	8.g	4f	8.B-	8.B-	8.B-	.	.	.	.	.	.	.	.
.	.	.	16f	.	16B	16B	16B	.	.	.	.	.	.	.	.
=20	=20	=20	=20	=20	=20	=20	=20	=20	=20	=20	=20	=20	=20	=20	=20
4r	1r	1r	2a	2f	4c	4c	4c	4r	4r	4r	4r	4r	4r	4r	1r
4ccc	.	.	.	.	4C	4C	4C	4ccc	4aa	4ff	4c	4c	4g	4G	.
4ccc	.	.	8g	8e	4C	4C	4C	4ccc	4gg	4ee	4C	4C	4g	4G	.
.	.	.	8r	8r	.	.	.	.	.	.	.	.	.	.	.
4r	.	.	4cc	[4f	4a	4e-	4r	4r	4a	4r	4r	4r	4r	4r	.
=21	=21	=21	=21	=21	=21	=21	=21	=21	=21	=21	=21	=21	=21	=21	=21
1r	1r	1r	4b-	4f]	4b-	4d	1r	1r	8b-	1r	1r	1r	1r	1r	1r
.	.	.	.	.	.	.	.	.	2r	.	.	.	.	.	.
.	.	.	4a	2f	2r	4c	.	.	.	.	.	.	.	.	.
.	.	.	4g	.	.	4B-	.	.	.	.	.	.	.	.	.
.	.	.	.	.	.	.	.	.	8r	.	.	.	.	.	.
.	.	.	4cc	[4f	4a	4e-	.	.	4a	.	.	.	.	.	.
=22	=22	=22	=22	=22	=22	=22	=22	=22	=22	=22	=22	=22	=22	=22	=22
1r	1r	1r	4b-	4f]	4b-	4d	2.r	1r	8b-	1r	1r	1r	1r	1r	1r
.	.	.	.	.	.	.	.	.	2..r	.	.	.	.	.	.
.	.	.	4a	2f	2r	4c	.	.	.	.	.	.	.	.	.
.	.	.	4g	.	.	4B-	.	.	.	.	.	.	.	.	.
.	.	.	4dd	4A-	4f	4BB	4BB	.	.	.	.	.	.	.	.
=23	=23	=23	=23	=23	=23	=23	=23	=23	=23	=23	=23	=23	=23	=23	=23
1r	1r	1r	2f	2A	2f	1C	1C	1r	1r	1r	1r	1r	1r	1r	1r
.	.	.	8.g	2B-	2e	.	.	.	.	.	.	.	.	.	.
.	.	.	16f	.	.	.	.	.	.	.	.	.	.	.	.
.	.	.	8.g	.	.	.	.	.	.	.	.	.	.	.	.
.	.	.	16a	.	.	.	.	.	.	.	.	.	.	.	.
=24	=24	=24	=24	=24	=24	=24	=24	=24	=24	=24	=24	=24	=24	=24	=24
1r	1r	1r	8f	4A	4f	4F	4F	1r	1r	1r	1r	1r	1r	1r	1r
.	.	.	8b-	.	.	.	.	.	.	.	.	.	.	.	.
.	.	.	8a	2.r	2.r	2.r	2.r	.	.	.	.	.	.	.	.
.	.	.	8dd	.	.	.	.	.	.	.	.	.	.	.	.
.	.	.	8cc	.	.	.	.	.	.	.	.	.	.	.	.
.	.	.	8ff	.	.	.	.	.	.	.	.	.	.	.	.
.	.	.	8ee	.	.	.	.	.	.	.	.	.	.	.	.
.	.	.	8gg	.	.	.	.	.	.	.	.	.	.	.	.
=25	=25	=25	=25	=25	=25	=25	=25	=25	=25	=25	=25	=25	=25	=25	=25
1r	1r	1r	8ff	2.r	2.r	2.r	1r	1r	2.r	1r	1r	1r	1r	1r	1r
.	.	.	8aa	.	.	.	.	.	.	.	.	.	.	.	.
.	.	.	8gg	.	.	.	.	.	.	.	.	.	.	.	.
.	.	.	8ff	.	.	.	.	.	.	.	.	.	.	.	.
.	.	.	8ee	.	.	.	.	.	.	.	.	.	.	.	.
.	.	.	8dd	.	.	.	.	.	.	.	.	.	.	.	.
.	.	.	4cc	[4f	4a	4e-	.	.	4a	.	.	.	.	.	.
=26	=26	=26	=26	=26	=26	=26	=26	=26	=26	=26	=26	=26	=26	=26	=26
1r	1r	1r	4b-	4f]	4b-	4d	1r	1r	8b-	1r	1r	1r	1r	1r	1r
.	.	.	.	.	.	.	.	.	2r	.	.	.	.	.	.
.	.	.	4a	2f	2r	4c	.	.	.	.	.	.	.	.	.
.	.	.	4g	.	.	4B-	.	.	.	.	.	.	.	.	.
.	.	.	.	.	.	.	.	.	8r	.	.	.	.	.	.
.	.	.	4cc	[4f	4a	4e-	.	.	4a	.	.	.	.	.	.
=27	=27	=27	=27	=27	=27	=27	=27	=27	=27	=27	=27	=27	=27	=27	=27
1r	1r	1r	4b-	4f]	4b-	4d	2.r	1r	4b-	1r	1r	1r	1r	1r	1r
.	.	.	4a	2f	2r	4c	.	.	2.r	.	.	.	.	.	.
.	.	.	4g	.	.	4B-	.	.	.	.	.	.	.	.	.
.	.	.	4dd	4f	4a-	4BB	4BB	.	.	.	.	.	.	.	.
=28	=28	=28	=28	=28	=28	=28	=28	=28	=28	=28	=28	=28	=28	=28	=28
1r	1r	1r	4cc	2e	2g	4C	4C	1r	1r	1r	1r	1r	1r	1r	1r
.	.	.	4b-	.	.	4C#	4C#	.	.	.	.	.	.	.	.
.	.	.	4a	4f	4f	4D	4D	.	.	.	.	.	.	.	.
.	.	.	4ff	4A- 4f	4d	4BB	4BB	.	.	.	.	.	.	.	.
=29	=29	=29	=29	=29	=29	=29	=29	=29	=29	=29	=29	=29	=29	=29	=29
1r	1r	1r	2f	2A	2f	1C	1C	1r	1r	1r	1r	1r	1r	1r	1r
.	.	.	8.g	2B-	2e	.	.	.	.	.	.	.	.	.	.
.	.	.	16f	.	.	.	.	.	.	.	.	.	.	.	.
.	.	.	8.g	.	.	.	.	.	.	.	.	.	.	.	.
.	.	.	16cc	.	.	.	.	.	.	.	.	.	.	.	.
=30	=30	=30	=30	=30	=30	=30	=30	=30	=30	=30	=30	=30	=30	=30	=30
4r	1r	1r	8cc	4r	4r	4r	4r	4r	4r	4r	4r	4r	4r	4r	1r
.	.	.	8f	.	.	.	.	.	.	.	.	.	.	.	.
4aa	.	.	2r	4A 4f	4c	4F	4F	4aa	4ff	4cc	4A	4F	4cc	4e	.
4aa	.	.	.	4A 4f	4A	4FF	4FF	4aa	4ff	4cc	4A	4F	4cc	4e	.
4r	.	.	4cc	4cc	8.E	8.C	8.C	4r	4r	4r	4r	4r	4r	4r	.
.	.	.	.	.	16F	16D	16D	.	.	.	.	.	.	.	.
=31	=31	=31	=31	=31	=31	=31	=31	=31	=31	=31	=31	=31	=31	=31	=31
1r	1r	1r	[1cc	8b-	8G	8E	8E	1r	1r	1r	1r	1r	1g	1G	1r
.	.	.	.	8r	8r	8r	8r	.	.	.	.	.	.	.	.
.	.	.	.	8.b-	8.g	8.E	8.E	.	.	.	.	.	.	.	.
.	.	.	.	16a	16f	16F	16F	.	.	.	.	.	.	.	.
.	.	.	.	8g	8e	8G	8G	.	.	.	.	.	.	.	.
.	.	.	.	8r	8r	8r	8r	.	.	.	.	.	.	.	.
.	.	.	.	8.g	8.e	8.G	8.G	.	.	.	.	.	.	.	.
.	.	.	.	16f	16f	16A	16A	.	.	.	.	.	.	.	.
=32	=32	=32	=32	=32	=32	=32	=32	=32	=32	=32	=32	=32	=32	=32	=32
1r	1r	1r	4cc]	2e	2g	2B-	2B-	1r	1r	1r	1r	1r	2dd	2g	1r
.	.	.	8.dd	.	.	.	.	.	.	.	.	.	.	.	.
.	.	.	16cc	.	.	.	.	.	.	.	.	.	.	.	.
.	.	.	8cc	8f	8f	8A	8A	.	.	.	.	.	4ee	4cc	.
.	.	.	8r	8r	8r	8r	8r	.	.	.	.	.	.	.	.
.	.	.	8.ff	[4f	4cc	4A	4A	.	.	.	.	.	4r	4r	.
.	.	.	16ee-	.	.	.	.	.	.	.	.	.	.	.	.
=33	=33	=33	=33	=33	=33	=33	=33	=33	=33	=33	=33	=33	=33	=33	=33
1r	1r	1r	8dd	8f]	8dd	8B-	8B-	1r	1r	1r	1r	1r	1r	1r	1r
.	.	.	8r	8r	8r	8r	8r	.	.	.	.	.	.	.	.
.	.	.	8.dd	2f	8.B-	8.B-	8.B-	.	.	.	.	.	.	.	.
.	.	.	16cc	.	16c	16c	16c	.	.	.	.	.	.	.	.
.	.	.	8.b-	.	8.d	8.d	8.d	.	.	.	.	.	.	.	.
.	.	.	16a	.	16c	16c	16c	.	.	.	.	.	.	.	.
.	.	.	8.g	4f	8.B-	8.B-	8.B-	.	.	.	.	.	.	.	.
.	.	.	16f	.	16B	16B	16B	.	.	.	.	.	.	.	.
=34	=34	=34	=34	=34	=34	=34	=34	=34	=34	=34	=34	=34	=34	=34	=34
4r	1r	1r	2a	2f	4c	4c	4c	4r	4r	4r	4r	4r	4r	4r	1r
4ccc	.	.	.	.	4C	4C	4C	4ccc	4aa	4ff	4c	4c	4ee	4cc	.
4ccc	.	.	8g	8e	4C	4C	4C	4ccc	4gg	4ee	4C	4C	4dd	4g	.
.	.	.	8r	8r	.	.	.	.	.	.	.	.	.	.	.
4r	.	.	4cc	[4f	4a	4e-	4r	4r	4a	4r	4r	4r	4r	4r	.
=35	=35	=35	=35	=35	=35	=35	=35	=35	=35	=35	=35	=35	=35	=35	=35
1r	1r	1r	4b-	4f]	4b-	4d	1r	1r	8b-	1r	1r	1r	1r	1r	1r
.	.	.	.	.	.	.	.	.	2r	.	.	.	.	.	.
.	.	.	4a	2f	2r	4c	.	.	.	.	.	.	.	.	.
.	.	.	4g	.	.	4B-	.	.	.	.	.	.	.	.	.
.	.	.	.	.	.	.	.	.	8r	.	.	.	.	.	.
.	.	.	4cc	[4f	4a	4e-	.	.	4a	.	.	.	.	.	.
=36	=36	=36	=36	=36	=36	=36	=36	=36	=36	=36	=36	=36	=36	=36	=36
1r	1r	1r	4b-	4f]	4b-	4d	2.r	1r	8b-	1r	1r	1r	1r	1r	1r
.	.	.	.	.	.	.	.	.	2..r	.	.	.	.	.	.
.	.	.	4a	2f	2r	4c	.	.	.	.	.	.	.	.	.
.	.	.	4g	.	.	4B-	.	.	.	.	.	.	.	.	.
.	.	.	4dd	4A-	4f	4BB	4BB	.	.	.	.	.	.	.	.
=37	=37	=37	=37	=37	=37	=37	=37	=37	=37	=37	=37	=37	=37	=37	=37
1r	1r	1r	2f	2A	2f	1C	1C	1r	1r	1r	1r	1r	1r	1r	1r
.	.	.	8.g	2B-	2e	.	.	.	.	.	.	.	.	.	.
.	.	.	16f	.	.	.	.	.	.	.	.	.	.	.	.
.	.	.	8.g	.	.	.	.	.	.	.	.	.	.	.	.
.	.	.	16a	.	.	.	.	.	.	.	.	.	.	.	.
=38	=38	=38	=38	=38	=38	=38	=38	=38	=38	=38	=38	=38	=38	=38	=38
1r	1r	1r	8f	4A	4f	4FF	4FF	1r	1r	1r	1r	1r	1r	1r	1r
.	.	.	8b-	.	.	.	.	.	.	.	.	.	.	.	.
.	.	.	8a	2.r	2.r	2.r	2.r	.	.	.	.	.	.	.	.
.	.	.	8dd	.	.	.	.	.	.	.	.	.	.	.	.
.	.	.	8cc	.	.	.	.	.	.	.	.	.	.	.	.
.	.	.	8ff	.	.	.	.	.	.	.	.	.	.	.	.
.	.	.	8ee	.	.	.	.	.	.	.	.	.	.	.	.
.	.	.	8gg	.	.	.	.	.	.	.	.	.	.	.	.
=39	=39	=39	=39	=39	=39	=39	=39	=39	=39	=39	=39	=39	=39	=39	=39
2.r	1r	1r	8ff	2.r	2.r	2.r	1r	1r	2.r	2.r	1r	1r	1r	1r	1r
.	.	.	8aa	.	.	.	.	.	.	.	.	.	.	.	.
.	.	.	8gg	.	.	.	.	.	.	.	.	.	.	.	.
.	.	.	8ff	.	.	.	.	.	.	.	.	.	.	.	.
.	.	.	8ee	.	.	.	.	.	.	.	.	.	.	.	.
.	.	.	8dd	.	.	.	.	.	.	.	.	.	.	.	.
4ccc	.	.	4cc	[4f	4a	4e-	.	.	4a	4a	.	.	.	.	.
=40	=40	=40	=40	=40	=40	=40	=40	=40	=40	=40	=40	=40	=40	=40	=40
4bb-	1r	1r	4b-	4f]	4b-	4d	1r	1r	8b-	8b-	1r	1r	1r	1r	1r
.	.	.	.	.	.	.	.	.	2r	2r	.	.	.	.	.
4aa	.	.	4a	2f	2r	4c	.	.	.	.	.	.	.	.	.
4gg	.	.	4g	.	.	4B-	.	.	.	.	.	.	.	.	.
.	.	.	.	.	.	.	.	.	8r	8r	.	.	.	.	.
4ccc	.	.	4cc	[4f	4a	4e-	.	.	4a	4a	.	.	.	.	.
=41	=41	=41	=41	=41	=41	=41	=41	=41	=41	=41	=41	=41	=41	=41	=41
4bb-	1r	1r	4b-	4f]	4b-	4d	2.r	1r	4b-	4b-	1r	1r	1r	1r	1r
4aa	.	.	4a	2f	2r	4c	.	.	2.r	2.r	.	.	.	.	.
4gg	.	.	4g	.	.	4B-	.	.	.	.	.	.	.	.	.
4ddd	.	.	4dd	4f	4a-	4BB	4BB	.	.	.	.	.	.	.	.
=42	=42	=42	=42	=42	=42	=42	=42	=42	=42	=42	=42	=42	=42	=42	=42
4ccc	1r	1r	4cc	2e	2g	4C	4C	1r	1r	1r	1r	1r	1r	1r	1r
4bb-	.	.	4b-	.	.	4C#	4C#	.	.	.	.	.	.	.	.
4aa	.	.	4a	4f	4f	4D	4D	.	.	.	.	.	.	.	.
4fff	.	.	4ff	4A-	4d	4BB	4BB	.	.	.	.	.	.	.	.
=43	=43	=43	=43	=43	=43	=43	=43	=43	=43	=43	=43	=43	=43	=43	=43
2ff	1r	1r	2f	2A	2f	1C	1C	1r	1r	1r	1r	1r	1r	1r	1r
8.gg	.	.	8.g	2B-	2e	.	.	.	.	.	.	.	.	.	.
16ff	.	.	16f	.	.	.	.	.	.	.	.	.	.	.	.
8.gg	.	.	8.g	.	.	.	.	.	.	.	.	.	.	.	.
16ccc	.	.	16cc	.	.	.	.	.	.	.	.	.	.	.	.
=44	=44	=44	=44	=44	=44	=44	=44	=44	=44	=44	=44	=44	=44	=44	=44
8ccc	1r	1r	8cc	4r	4r	4r	4r	1r	4r	4r	4r	4r	4r	4r	1r
8ff	.	.	8f	.	.	.	.	.	.	.	.	.	.	.	.
2.r	.	.	2r	4A 4f	4c	4FF	4FF	.	4aa	4cc	4F	4F	4cc	4e	.
.	.	.	.	4A 4f	4A	4FF	4FF	.	4ff	4a	4FF	4FF	4cc	4e	.
.	.	.	12a	4r	4r	4r	4r	.	4r	4r	4r	4r	4r	4r	.
.	.	.	12b-	.	.	.	.	.	.	.	.	.	.	.	.
.	.	.	12g	.	.	.	.	.	.	.	.	.	.	.	.
=45	=45	=45	=45	=45	=45	=45	=45	=45	=45	=45	=45	=45	=45	=45	=45
1r	1r	1r	12e	4A	4c	4F	4F	1r	1r	1r	1r	1r	1r	1r	1r
.	.	.	12f	.	.	.	.	.	.	.	.	.	.	.	.
.	.	.	12a	.	.	.	.	.	.	.	.	.	.	.	.
.	.	.	12cc	4r	4r	4r	4r	.	.	.	.	.	.	.	.
.	.	.	12dd	.	.	.	.	.	.	.	.	.	.	.	.
.	.	.	12b-	.	.	.	.	.	.	.	.	.	.	.	.
.	.	.	12g#	8c	8A	4F	4F	.	.	.	.	.	.	.	.
.	.	.	12a	.	.	.	.	.	.	.	.	.	.	.	.
.	.	.	.	8r	8r	.	.	.	.	.	.	.	.	.	.
.	.	.	12cc	.	.	.	.	.	.	.	.	.	.	.	.
.	.	.	12ee	8B-	8d	4r	4r	.	.	.	.	.	.	.	.
.	.	.	12ff	.	.	.	.	.	.	.	.	.	.	.	.
.	.	.	.	8r	8r	.	.	.	.	.	.	.	.	.	.
.	.	.	12dd	.	.	.	.	.	.	.	.	.	.	.	.
=46	=46	=46	=46	=46	=46	=46	=46	=46	=46	=46	=46	=46	=46	=46	=46
1r	1r	1r	12cc	4A	4f	4F	4F	1r	1r	1r	1r	1r	1r	1r	1r
.	.	.	12aa	.	.	.	.	.	.	.	.	.	.	.	.
.	.	.	12gg	.	.	.	.	.	.	.	.	.	.	.	.
.	.	.	12ff	2r	2r	2r	2r	.	.	.	.	.	.	.	.
.	.	.	12ee	.	.	.	.	.	.	.	.	.	.	.	.
.	.	.	12dd	.	.	.	.	.	.	.	.	.	.	.	.
.	.	.	12cc	.	.	.	.	.	.	.	.	.	.	.	.
.	.	.	12b-	.	.	.	.	.	.	.	.	.	.	.	.
.	.	.	12a	.	.	.	.	.	.	.	.	.	.	.	.
.	.	.	12g	4c	4e	4B-	4B-	.	.	.	.	.	.	.	.
.	.	.	12cc	.	.	.	.	.	.	.	.	.	.	.	.
.	.	.	12g	.	.	.	.	.	.	.	.	.	.	.	.
=47	=47	=47	=47	=47	=47	=47	=47	=47	=47	=47	=47	=47	=47	=47	=47
1r	1r	1r	12f	2.c	4f	4A	4A	1r	1r	1r	1r	1r	1r	1r	1r
.	.	.	12cc	.	.	.	.	.	.	.	.	.	.	.	.
.	.	.	12f	.	.	.	.	.	.	.	.	.	.	.	.
.	.	.	12e	.	4g	4G	4G	.	.	.	.	.	.	.	.
.	.	.	12cc	.	.	.	.	.	.	.	.	.	.	.	.
.	.	.	12e	.	.	.	.	.	.	.	.	.	.	.	.
.	.	.	12d	.	4a	4F	4F	.	.	.	.	.	.	.	.
.	.	.	12a	.	.	.	.	.	.	.	.	.	.	.	.
.	.	.	12g	.	.	.	.	.	.	.	.	.	.	.	.
.	.	.	12f	4B	4d	4G	4G	.	.	.	.	.	.	.	.
.	.	.	12e	.	.	.	.	.	.	.	.	.	.	.	.
.	.	.	12d	.	.	.	.	.	.	.	.	.	.	.	.
=48	=48	=48	=48	=48	=48	=48	=48	=48	=48	=48	=48	=48	=48	=48	=48
1r	1r	1r	12c	4c	4e	4C	4C	1r	1r	1r	1r	1r	1r	1r	1r
.	.	.	12d	.	.	.	.	.	.	.	.	.	.	.	.
.	.	.	12B	.	.	.	.	.	.	.	.	.	.	.	.
.	.	.	12c	2.r	2.r	2.r	2.r	.	.	.	.	.	.	.	.
.	.	.	12e	.	.	.	.	.	.	.	.	.	.	.	.
.	.	.	12f	.	.	.	.	.	.	.	.	.	.	.	.
.	.	.	12f#	.	.	.	.	.	.	.	.	.	.	.	.
.	.	.	12g	.	.	.	.	.	.	.	.	.	.	.	.
.	.	.	12g#	.	.	.	.	.	.	.	.	.	.	.	.
.	.	.	12a	.	.	.	.	.	.	.	.	.	.	.	.
.	.	.	12b-	.	.	.	.	.	.	.	.	.	.	.	.
.	.	.	12g	.	.	.	.	.	.	.	.	.	.	.	.
=49	=49	=49	=49	=49	=49	=49	=49	=49	=49	=49	=49	=49	=49	=49	=49
1r	1r	1r	12e	4A	4c	4F	4F	1r	1r	1r	1r	1r	1r	1r	1r
.	.	.	12f	.	.	.	.	.	.	.	.	.	.	.	.
.	.	.	12a	.	.	.	.	.	.	.	.	.	.	.	.
.	.	.	12cc	4r	4r	4r	4r	.	.	.	.	.	.	.	.
.	.	.	12dd	.	.	.	.	.	.	.	.	.	.	.	.
.	.	.	12b-	.	.	.	.	.	.	.	.	.	.	.	.
.	.	.	12g#	4c	4A	4F	4F	.	.	.	.	.	.	.	.
.	.	.	12a	.	.	.	.	.	.	.	.	.	.	.	.
.	.	.	12cc	.	.	.	.	.	.	.	.	.	.	.	.
.	.	.	12ff	4r	4r	4r	4r	.	.	.	.	.	.	.	.
.	.	.	12aa	.	.	.	.	.	.	.	.	.	.	.	.
.	.	.	12gg	.	.	.	.	.	.	.	.	.	.	.	.
=50	=50	=50	=50	=50	=50	=50	=50	=50	=50	=50	=50	=50	=50	=50	=50
1r	1r	1r	12ff	2dd	4r	1r	1r	1r	1r	1r	1r	1r	1r	1r	1r
.	.	.	12aa	.	.	.	.	.	.	.	.	.	.	.	.
.	.	.	12gg	.	.	.	.	.	.	.	.	.	.	.	.
.	.	.	12ff	.	4g#	.	.	.	.	.	.	.	.	.	.
.	.	.	12dd	.	.	.	.	.	.	.	.	.	.	.	.
.	.	.	12ff	.	.	.	.	.	.	.	.	.	.	.	.
.	.	.	12ee	[2cc	4a	.	.	.	.	.	.	.	.	.	.
.	.	.	12cc	.	.	.	.	.	.	.	.	.	.	.	.
.	.	.	12ee	.	.	.	.	.	.	.	.	.	.	.	.
.	.	.	12ee-	.	4f#	.	.	.	.	.	.	.	.	.	.
.	.	.	12cc	.	.	.	.	.	.	.	.	.	.	.	.
.	.	.	12ee-	.	.	.	.	.	.	.	.	.	.	.	.
=51	=51	=51	=51	=51	=51	=51	=51	=51	=51	=51	=51	=51	=51	=51	=51
1r	1r	1r	12dd	2cc]	2g	1r	1r	1r	1r	1r	1r	1r	1r	1r	1r
.	.	.	12gg	.	.	.	.	.	.	.	.	.	.	.	.
.	.	.	12dd	.	.	.	.	.	.	.	.	.	.	.	.
.	.	.	12ee	.	.	.	.	.	.	.	.	.	.	.	.
.	.	.	12gg	.	.	.	.	.	.	.	.	.	.	.	.
.	.	.	12ee	.	.	.	.	.	.	.	.	.	.	.	.
.	.	.	12ff	2b	2G	.	.	.	.	.	.	.	.	.	.
.	.	.	12aa	.	.	.	.	.	.	.	.	.	.	.	.
.	.	.	12gg	.	.	.	.	.	.	.	.	.	.	.	.
.	.	.	12ff	.	.	.	.	.	.	.	.	.	.	.	.
.	.	.	12ee	.	.	.	.	.	.	.	.	.	.	.	.
.	.	.	12dd	.	.	.	.	.	.	.	.	.	.	.	.
=52	=52	=52	=52	=52	=52	=52	=52	=52	=52	=52	=52	=52	=52	=52	=52
4r	1r	1r	12cc	4cc	4c	2.r	2.r	4r	4r	4r	4r	4r	4r	4r	1r
.	.	.	12a	.	.	.	.	.	.	.	.	.	.	.	.
.	.	.	12g	.	.	.	.	.	.	.	.	.	.	.	.
4ccc	.	.	12f	2r	2.r	.	.	4ccc	4gg	4ee	4e	4c	4g	4G	.
.	.	.	12e	.	.	.	.	.	.	.	.	.	.	.	.
.	.	.	12d	.	.	.	.	.	.	.	.	.	.	.	.
4ccc	.	.	4c	.	.	.	.	4ccc	4gg	4ee	4e	4c	4g	4G	.
4r	.	.	4r	4cc	.	12C	12C	4r	4r	4r	4r	4r	4r	4r	.
.	.	.	.	.	.	12E	12E	.	.	.	.	.	.	.	.
.	.	.	.	.	.	12D	12D	.	.	.	.	.	.	.	.
=53	=53	=53	=53	=53	=53	=53	=53	=53	=53	=53	=53	=53	=53	=53	=53
1r	1r	1r	[1cc	8b-	2.r	12E	12E	1r	1r	1r	1r	1r	1r	1r	1r
.	.	.	.	.	.	12D	12D	.	.	.	.	.	.	.	.
.	.	.	.	8r	.	.	.	.	.	.	.	.	.	.	.
.	.	.	.	.	.	12C	12C	.	.	.	.	.	.	.	.
.	.	.	.	12c	.	12E	12E	.	.	.	.	.	.	.	.
.	.	.	.	12e	.	12G	12G	.	.	.	.	.	.	.	.
.	.	.	.	12d	.	12F	12F	.	.	.	.	.	.	.	.
.	.	.	.	12e	.	12G	12G	.	.	.	.	.	.	.	.
.	.	.	.	12d	.	12F	12F	.	.	.	.	.	.	.	.
.	.	.	.	12c	.	12E	12E	.	.	.	.	.	.	.	.
.	.	.	.	12e	12c	12G	12G	.	.	.	.	.	.	.	.
.	.	.	.	12g	12e	12B-	12B-	.	.	.	.	.	.	.	.
.	.	.	.	12f	12f	12A	12A	.	.	.	.	.	.	.	.
=54	=54	=54	=54	=54	=54	=54	=54	=54	=54	=54	=54	=54	=54	=54	=54
1r	1r	1r	12cc]	2e	2g	2B-	2B-	1r	1r	1r	1r	1r	1r	1r	1r
.	.	.	12ee	.	.	.	.	.	.	.	.	.	.	.	.
.	.	.	12dd	.	.	.	.	.	.	.	.	.	.	.	.
.	.	.	12cc	.	.	.	.	.	.	.	.	.	.	.	.
.	.	.	12ee	.	.	.	.	.	.	.	.	.	.	.	.
.	.	.	12dd	.	.	.	.	.	.	.	.	.	.	.	.
.	.	.	12cc	2f	2f	2A	2A	.	.	.	.	.	.	.	.
.	.	.	12gg	.	.	.	.	.	.	.	.	.	.	.	.
.	.	.	12ff	.	.	.	.	.	.	.	.	.	.	.	.
.	.	.	12cc	.	.	.	.	.	.	.	.	.	.	.	.
.	.	.	12ff	.	.	.	.	.	.	.	.	.	.	.	.
.	.	.	12ee-	.	.	.	.	.	.	.	.	.	.	.	.
=55	=55	=55	=55	=55	=55	=55	=55	=55	=55	=55	=55	=55	=55	=55	=55
1r	1r	1r	12cc#	4g	4B-	4B-	4B-	1r	1r	1r	1r	1r	1r	1r	1r
.	.	.	12dd	.	.	.	.	.	.	.	.	.	.	.	.
.	.	.	12ff	.	.	.	.	.	.	.	.	.	.	.	.
.	.	.	12ee	2.r	2.r	2.r	2.r	.	.	.	.	.	.	.	.
.	.	.	12dd	.	.	.	.	.	.	.	.	.	.	.	.
.	.	.	12cc	.	.	.	.	.	.	.	.	.	.	.	.
.	.	.	12b-	.	.	.	.	.	.	.	.	.	.	.	.
.	.	.	12a	.	.	.	.	.	.	.	.	.	.	.	.
.	.	.	12g	.	.	.	.	.	.	.	.	.	.	.	.
.	.	.	12f#	.	.	.	.	.	.	.	.	.	.	.	.
.	.	.	12g	.	.	.	.	.	.	.	.	.	.	.	.
.	.	.	12dd	.	.	.	.	.	.	.	.	.	.	.	.
=56	=56	=56	=56	=56	=56	=56	=56	=56	=56	=56	=56	=56	=56	=56	=56
1r	1r	1r	2f	12A	4r	4C	4C	1r	2.r	1r	1r	1r	1r	1r	1r
.	.	.	.	12c	.	.	.	.	.	.	.	.	.	.	.
.	.	.	.	12e	.	.	.	.	.	.	.	.	.	.	.
.	.	.	.	12f	4A	4c	4c	.	.	.	.	.	.	.	.
.	.	.	.	12c	.	.	.	.	.	.	.	.	.	.	.
.	.	.	.	12A	.	.	.	.	.	.	.	.	.	.	.
.	.	.	8e	8G	8c	4C	4C	.	.	.	.	.	.	.	.
.	.	.	8r	8r	8r	.	.	.	.	.	.	.	.	.	.
.	.	.	12cc	[4f	4a	4e-	4r	.	4a	.	.	.	.	.	.
.	.	.	12ff	.	.	.	.	.	.	.	.	.	.	.	.
.	.	.	12cc	.	.	.	.	.	.	.	.	.	.	.	.
=57	=57	=57	=57	=57	=57	=57	=57	=57	=57	=57	=57	=57	=57	=57	=57
1r	1r	1r	12b-	4f]	4b-	4d	1r	1r	8b-	1r	1r	1r	1r	1r	1r
.	.	.	12ff	.	.	.	.	.	.	.	.	.	.	.	.
.	.	.	.	.	.	.	.	.	2r	.	.	.	.	.	.
.	.	.	12b-	.	.	.	.	.	.	.	.	.	.	.	.
.	.	.	12a	2f	2r	4c	.	.	.	.	.	.	.	.	.
.	.	.	12ff	.	.	.	.	.	.	.	.	.	.	.	.
.	.	.	12a	.	.	.	.	.	.	.	.	.	.	.	.
.	.	.	12g	.	.	4B-	.	.	.	.	.	.	.	.	.
.	.	.	12g	.	.	.	.	.	.	.	.	.	.	.	.
.	.	.	.	.	.	.	.	.	8r	.	.	.	.	.	.
.	.	.	12g	.	.	.	.	.	.	.	.	.	.	.	.
.	.	.	12cc	[4f	4a	4e-	.	.	4a	.	.	.	.	.	.
.	.	.	12ff	.	.	.	.	.	.	.	.	.	.	.	.
.	.	.	12cc	.	.	.	.	.	.	.	.	.	.	.	.
=58	=58	=58	=58	=58	=58	=58	=58	=58	=58	=58	=58	=58	=58	=58	=58
1r	1r	1r	12b-	4f]	4b-	4d	1r	1r	8b-	1r	1r	1r	1r	1r	1r
.	.	.	12ff	.	.	.	.	.	.	.	.	.	.	.	.
.	.	.	.	.	.	.	.	.	2..r	.	.	.	.	.	.
.	.	.	12b-	.	.	.	.	.	.	.	.	.	.	.	.
.	.	.	12a	2f	2.r	4c	.	.	.	.	.	.	.	.	.
.	.	.	12ff	.	.	.	.	.	.	.	.	.	.	.	.
.	.	.	12a	.	.	.	.	.	.	.	.	.	.	.	.
.	.	.	12g	.	.	4B-	.	.	.	.	.	.	.	.	.
.	.	.	12a	.	.	.	.	.	.	.	.	.	.	.	.
.	.	.	12b-	.	.	.	.	.	.	.	.	.	.	.	.
.	.	.	12b	4r	.	4r	.	.	.	.	.	.	.	.	.
.	.	.	12cc	.	.	.	.	.	.	.	.	.	.	.	.
.	.	.	12cc#	.	.	.	.	.	.	.	.	.	.	.	.
=59	=59	=59	=59	=59	=59	=59	=59	=59	=59	=59	=59	=59	=59	=59	=59
1r	1r	1r	2f	4r	4r	4r	4r	1r	1r	1r	1r	1r	1r	1r	1r
.	.	.	.	4A	4A	2C	2C	.	.	.	.	.	.	.	.
.	.	.	12e	2B-	2G	.	.	.	.	.	.	.	.	.	.
.	.	.	12g	.	.	.	.	.	.	.	.	.	.	.	.
.	.	.	12cc	.	.	.	.	.	.	.	.	.	.	.	.
.	.	.	12b-	.	.	4C	4C	.	.	.	.	.	.	.	.
.	.	.	12g	.	.	.	.	.	.	.	.	.	.	.	.
.	.	.	12e	.	.	.	.	.	.	.	.	.	.	.	.
=60	=60	=60	=60	=60	=60	=60	=60	=60	=60	=60	=60	=60	=60	=60	=60
1r	1r	1r	12f	4A	4A	4FF	4FF	1r	1r	1r	1r	1r	1r	1r	1r
.	.	.	12b-	.	.	.	.	.	.	.	.	.	.	.	.
.	.	.	12g#	.	.	.	.	.	.	.	.	.	.	.	.
.	.	.	12a	2.r	2.r	2.r	2.r	.	.	.	.	.	.	.	.
.	.	.	12dd	.	.	.	.	.	.	.	.	.	.	.	.
.	.	.	12b	.	.	.	.	.	.	.	.	.	.	.	.
.	.	.	12cc	.	.	.	.	.	.	.	.	.	.	.	.
.	.	.	12gg	.	.	.	.	.	.	.	.	.	.	.	.
.	.	.	12ee	.	.	.	.	.	.	.	.	.	.	.	.
.	.	.	12ff	.	.	.	.	.	.	.	.	.	.	.	.
.	.	.	12bb-	.	.	.	.	.	.	.	.	.	.	.	.
.	.	.	12gg#	.	.	.	.	.	.	.	.	.	.	.	.
=61	=61	=61	=61	=61	=61	=61	=61	=61	=61	=61	=61	=61	=61	=61	=61
1r	1r	1r	12aa	2.r	2.r	2.r	1r	1r	2.r	1r	1r	1r	1r	1r	1r
.	.	.	12bb-	.	.	.	.	.	.	.	.	.	.	.	.
.	.	.	12ccc	.	.	.	.	.	.	.	.	.	.	.	.
.	.	.	12bb-	.	.	.	.	.	.	.	.	.	.	.	.
.	.	.	12aa	.	.	.	.	.	.	.	.	.	.	.	.
.	.	.	12gg	.	.	.	.	.	.	.	.	.	.	.	.
.	.	.	12ff	.	.	.	.	.	.	.	.	.	.	.	.
.	.	.	12ee	.	.	.	.	.	.	.	.	.	.	.	.
.	.	.	12dd	.	.	.	.	.	.	.	.	.	.	.	.
.	.	.	12cc	[4f	4a	4e-	.	.	4a	.	.	.	.	.	.
.	.	.	12ff	.	.	.	.	.	.	.	.	.	.	.	.
.	.	.	12cc	.	.	.	.	.	.	.	.	.	.	.	.
=62	=62	=62	=62	=62	=62	=62	=62	=62	=62	=62	=62	=62	=62	=62	=62
1r	1r	1r	12b-	4f]	4b-	4d	1r	1r	8b-	1r	1r	1r	1r	1r	1r
.	.	.	12ff	.	.	.	.	.	.	.	.	.	.	.	.
.	.	.	.	.	.	.	.	.	2r	.	.	.	.	.	.
.	.	.	12b-	.	.	.	.	.	.	.	.	.	.	.	.
.	.	.	12a	2f	2r	4c	.	.	.	.	.	.	.	.	.
.	.	.	12ff	.	.	.	.	.	.	.	.	.	.	.	.
.	.	.	12a	.	.	.	.	.	.	.	.	.	.	.	.
.	.	.	12g	.	.	4B-	.	.	.	.	.	.	.	.	.
.	.	.	12g	.	.	.	.	.	.	.	.	.	.	.	.
.	.	.	.	.	.	.	.	.	8r	.	.	.	.	.	.
.	.	.	12g	.	.	.	.	.	.	.	.	.	.	.	.
.	.	.	12cc	[4f	4a	4e-	.	.	4a	.	.	.	.	.	.
.	.	.	12ff	.	.	.	.	.	.	.	.	.	.	.	.
.	.	.	12cc	.	.	.	.	.	.	.	.	.	.	.	.
=63	=63	=63	=63	=63	=63	=63	=63	=63	=63	=63	=63	=63	=63	=63	=63
1r	1r	1r	12b-	4f]	4b-	4d	2.r	1r	8b-	1r	1r	1r	1r	1r	1r
.	.	.	12ff	.	.	.	.	.	.	.	.	.	.	.	.
.	.	.	.	.	.	.	.	.	2..r	.	.	.	.	.	.
.	.	.	12b-	.	.	.	.	.	.	.	.	.	.	.	.
.	.	.	12a	2f	2r	4c	.	.	.	.	.	.	.	.	.
.	.	.	12ff	.	.	.	.	.	.	.	.	.	.	.	.
.	.	.	12a	.	.	.	.	.	.	.	.	.	.	.	.
.	.	.	12g	.	.	4B-	.	.	.	.	.	.	.	.	.
.	.	.	12g	.	.	.	.	.	.	.	.	.	.	.	.
.	.	.	12g	.	.	.	.	.	.	.	.	.	.	.	.
.	.	.	12dd	4f	4a-	4BB	4BB	.	.	.	.	.	.	.	.
.	.	.	12ee	.	.	.	.	.	.	.	.	.	.	.	.
.	.	.	12ff	.	.	.	.	.	.	.	.	.	.	.	.
=64	=64	=64	=64	=64	=64	=64	=64	=64	=64	=64	=64	=64	=64	=64	=64
1r	1r	1r	12ee	2e	2g	4C	4C	1r	1r	1r	1r	1r	1r	1r	1r
.	.	.	12dd	.	.	.	.	.	.	.	.	.	.	.	.
.	.	.	12cc	.	.	.	.	.	.	.	.	.	.	.	.
.	.	.	12b-	.	.	4C#	4C#	.	.	.	.	.	.	.	.
.	.	.	12cc	.	.	.	.	.	.	.	.	.	.	.	.
.	.	.	12b-	.	.	.	.	.	.	.	.	.	.	.	.
.	.	.	12a	4f	4f	4D	4D	.	.	.	.	.	.	.	.
.	.	.	12g	.	.	.	.	.	.	.	.	.	.	.	.
.	.	.	12f	.	.	.	.	.	.	.	.	.	.	.	.
.	.	.	12dd	4A-	4d	4BB	4BB	.	.	.	.	.	.	.	.
.	.	.	12ee	.	.	.	.	.	.	.	.	.	.	.	.
.	.	.	12ff	.	.	.	.	.	.	.	.	.	.	.	.
=65	=65	=65	=65	=65	=65	=65	=65	=65	=65	=65	=65	=65	=65	=65	=65
1r	1r	1r	2f	2A	2f	1C	1C	1r	1r	1r	1r	1r	1r	1r	1r
.	.	.	8.g	2B-	2e	.	.	.	.	.	.	.	.	.	.
.	.	.	16f	.	.	.	.	.	.	.	.	.	.	.	.
.	.	.	8.g	.	.	.	.	.	.	.	.	.	.	.	.
.	.	.	16cc	.	.	.	.	.	.	.	.	.	.	.	.
=66	=66	=66	=66	=66	=66	=66	=66	=66	=66	=66	=66	=66	=66	=66	=66
4r	2.r	2.r	8cc	4r	4r	4r	4r	4r	4r	4r	4r	4r	4r	4r	2.r
.	.	.	8f	.	.	.	.	.	.	.	.	.	.	.	.
4aa	.	.	2r	4f 4A	4c	4F	4F	4aa	4ff	4cc	4F	4F	4cc	4e	.
4aa	.	.	.	4f 4A	4c	4F	4F	4aa	4ff	4cc	4FF	4FF	4cc	4e	.
4r	4r	4r	8.a-	4r	4r	4r	4r	4r	4r	4r	4r	4r	4r	4r	4r
.	.	.	16g	.	.	.	.	.	.	.	.	.	.	.	.
=67	=67	=67	=67	=67	=67	=67	=67	=67	=67	=67	=67	=67	=67	=67	=67
2.r	2.r	2.r	8f	8A-	4c	4F	4F	2.r	2.r	2.r	2.r	2.r	2.r	2.r	2.r
.	.	.	8r	8r	.	.	.	.	.	.	.	.	.	.	.
.	.	.	8.cc	8.a-	4r	8r	8r	.	.	.	.	.	.	.	.
.	.	.	.	.	.	8F	8F	.	.	.	.	.	.	.	.
.	.	.	16b-	16g	.	.	.	.	.	.	.	.	.	.	.
.	.	.	8a-	8f	8c	16F	16F	.	.	.	.	.	.	.	.
.	.	.	.	.	.	16F	16F	.	.	.	.	.	.	.	.
.	.	.	8r	8r	8r	16F	16F	.	.	.	.	.	.	.	.
.	.	.	.	.	.	16F	16F	.	.	.	.	.	.	.	.
4aa-	8.c	16C	16f	16a- 16c	16f 16A-	16F	16F	4aa-	4ff	[4cc	4F	4F	8.cc	8.c	8.cc
.	.	16C	16a-	16a- 16c	16A- 16f	16F	16F	.	.	.	.	.	.	.	.
.	.	16C	16cc	16c 16a-	16A- 16f	16F	16F	.	.	.	.	.	.	.	.
.	16c	16C	16ff	16a- 16c	16A- 16f	16F	16F	.	.	.	.	.	16cc	16c	16cc
=68	=68	=68	=68	=68	=68	=68	=68	=68	=68	=68	=68	=68	=68	=68	=68
8gg	8c	8C	8ee	8g 8c	8e 8G	8G	8G	8gg	8ee	8cc]	8G	8G	4g	4g	8cc
8r	8r	8r	8r	8r	8r	8r	8r	8r	8r	8r	8r	8r	.	.	8r
4aa-	8.c	16C	16f	16a- 16cc	16f 16A-	16F	16F	4aa-	4ff	4.cc	4F	4F	8.cc	8.c	8.cc
.	.	16C	16a-	16a- 16cc	16A- 16f	16F	16F	.	.	.	.	.	.	.	.
.	.	16C	16cc	16cc 16a-	16A- 16f	16F	16F	.	.	.	.	.	.	.	.
.	16c	16C	16ff	16a- 16cc	16A- 16f	16F	16F	.	.	.	.	.	16cc	16c	16cc
8gg	8c	8C	8gg	8g 8cc	8e 8G	8E	8E	8gg	8gg	.	8E	8E	4dd	4g	8cc
8r	8r	8r	8r	8r	8r	8r	8r	8r	8r	8r	8r	8r	.	.	8r
4aa-	8.c	16C	16cc	16a- 16cc	16A- 16f	16F	16F	4aa-	4aa-	[4cc	4F	4F	8.cc	8.c	8.cc
.	.	16C	16ff	16cc 16a-	16A- 16f	16F	16F	.	.	.	.	.	.	.	.
.	.	16C	16aa-	16cc 16a-	16A- 16f	16F	16F	.	.	.	.	.	.	.	.
.	16c	16C	16ccc	16a- 16cc	16A- 16f	16F	16F	.	.	.	.	.	16cc	16c	16cc
=69	=69	=69	=69	=69	=69	=69	=69	=69	=69	=69	=69	=69	=69	=69	=69
4gg	4c	4C	4gg	4g 4cc	4G 4e	4E	4E	4gg	4gg	4cc]	4E	4E	4g	4G	4cc
4ccc	4c	4C	4ccc 4cc	4e 4cc	4G 4e	4C	4C	4ccc	4ccc	4ee	4C	4C	4g	4G	4cc
2r	2r	2r	4r	2r	2r	2r	2r	2r	2r	2r	2r	2r	2r	2r	2r
.	.	.	8.c	.	.	.	.	.	.	.	.	.	.	.	.
.	.	.	16d	.	.	.	.	.	.	.	.	.	.	.	.
=70	=70	=70	=70	=70	=70	=70	=70	=70	=70	=70	=70	=70	=70	=70	=70
1r	1r	1r	4e-	2G	1C	1C	1C	1r	1r	1r	1r	1r	1r	1r	1r
.	.	.	4e-	.	.	.	.	.	.	.	.	.	.	.	.
.	.	.	4e-	2A-	.	.	.	.	.	.	.	.	.	.	.
.	.	.	4e	.	.	.	.	.	.	.	.	.	.	.	.
=71	=71	=71	=71	=71	=71	=71	=71	=71	=71	=71	=71	=71	=71	=71	=71
1r	1r	1r	4.f	4.A-	2D-	2D-	2D-	1r	1r	1r	1r	1r	1r	1r	1r
.	.	.	8g	8B-	.	.	.	.	.	.	.	.	.	.	.
.	.	.	4a-	2c-	2F	2D	2D	.	.	.	.	.	.	.	.
.	.	.	4f	.	.	.	.	.	.	.	.	.	.	.	.
=72	=72	=72	=72	=72	=72	=72	=72	=72	=72	=72	=72	=72	=72	=72	=72
1r	1r	1r	4e-	4c	2A-	1E-	1E-	1r	1r	1r	1r	1r	1r	1r	1r
.	.	.	4c	4A-	.	.	.	.	.	.	.	.	.	.	.
.	.	.	4d-	4B-	4G	.	.	.	.	.	.	.	.	.	.
.	.	.	4B-	4G	4D-	.	.	.	.	.	.	.	.	.	.
=73	=73	=73	=73	=73	=73	=73	=73	=73	=73	=73	=73	=73	=73	=73	=73
2.r	2.r	2.r	4A-	4A-	4C	4AA-	4AA-	1r	2.r	2.r	2.r	2.r	2.r	2.r	2.r
.	.	.	16A-	4c	4E-	4AA-	4AA-	.	.	.	.	.	.	.	.
.	.	.	16c	.	.	.	.	.	.	.	.	.	.	.	.
.	.	.	16e-	.	.	.	.	.	.	.	.	.	.	.	.
.	.	.	16a-	.	.	.	.	.	.	.	.	.	.	.	.
.	.	.	4A-	4c	4E-	4AA-	4AA-	.	.	.	.	.	.	.	.
8.eee-	4r	4r	8.A-	4r	4r	4r	4r	.	8.ccc	4r	4r	4r	4r	4r	4r
16ddd-	.	.	16B-	.	.	.	.	.	16bb-	.	.	.	.	.	.
=74	=74	=74	=74	=74	=74	=74	=74	=74	=74	=74	=74	=74	=74	=74	=74
2ccc	1r	1r	8c	1r	1r	1r	1r	1r	2.aa-	1r	1r	1r	1r	1r	1r
.	.	.	8r	.	.	.	.	.	.	.	.	.	.	.	.
.	.	.	8.c	.	.	.	.	.	.	.	.	.	.	.	.
.	.	.	16d-	.	.	.	.	.	.	.	.	.	.	.	.
2bb-	.	.	4e-	.	.	.	.	.	.	.	.	.	.	.	.
.	.	.	4e	.	.	.	.	.	[4gg	.	.	.	.	.	.
=75	=75	=75	=75	=75	=75	=75	=75	=75	=75	=75	=75	=75	=75	=75	=75
2aa-	1r	1r	4f	1r	1r	1r	1r	1r	4gg]	1r	1r	1r	1r	1r	1r
.	.	.	8.a-	.	.	.	.	.	2ff	.	.	.	.	.	.
.	.	.	16b-	.	.	.	.	.	.	.	.	.	.	.	.
2gg	.	.	4cc	.	.	.	.	.	.	.	.	.	.	.	.
.	.	.	4b-	.	.	.	.	.	4ee	.	.	.	.	.	.
=76	=76	=76	=76	=76	=76	=76	=76	=76	=76	=76	=76	=76	=76	=76	=76
4ff	1r	1r	4a-	1r	1r	1r	1r	1r	4ff	1r	1r	1r	1r	1r	1r
8.gg	.	.	8.g	.	.	.	.	.	8.ee	.	.	.	.	.	.
16aa-	.	.	16f	.	.	.	.	.	16ff	.	.	.	.	.	.
4bb-	.	.	4e	.	.	.	.	.	4gg	.	.	.	.	.	.
4aa-	.	.	4f	.	.	.	.	.	4ff	.	.	.	.	.	.
=77	=77	=77	=77	=77	=77	=77	=77	=77	=77	=77	=77	=77	=77	=77	=77
4gg	1r	1r	4c	1r	1r	1r	1r	1r	4ee	4r	4r	4r	4r	4r	1r
4ccc	.	.	2r	.	.	.	.	.	4ee	4gg	4c	4c	4g	4G	.
4ccc	.	.	.	.	.	.	.	.	4ee	4gg	4C	4C	4g	4G	.
4r	.	.	8.a-	.	.	.	.	.	4r	4r	4r	4r	4r	4r	.
.	.	.	16g	.	.	.	.	.	.	.	.	.	.	.	.
=78	=78	=78	=78	=78	=78	=78	=78	=78	=78	=78	=78	=78	=78	=78	=78
2.r	2.r	2.r	8f	8A-	4c	4F	4F	2.r	2.r	2.r	2.r	2.r	2.r	2.r	2.r
.	.	.	8r	8r	.	.	.	.	.	.	.	.	.	.	.
.	.	.	8.cc	8.a-	4r	4r	4r	.	.	.	.	.	.	.	.
.	.	.	16b-	16g	.	.	.	.	.	.	.	.	.	.	.
.	.	.	8a-	8f	8c	8F	8F	.	.	.	.	.	.	.	.
.	.	.	8r	8r	8r	8r	8r	.	.	.	.	.	.	.	.
4ccc	8.c	16C	16ff	16A- 16f	16c	16F	16F	4ccc	4ff	4a-	4F	4F	8.cc	8.cc	8.cc
.	.	16C	16cc	16f 16A-	16c	16F	16F	.	.	.	.	.	.	.	.
.	.	16C	16a-	16A- 16f	16c	16F	16F	.	.	.	.	.	.	.	.
.	16c	16C	16f	16A- 16f	16c	16F	16F	.	.	.	.	.	16cc	16cc	16cc
=79	=79	=79	=79	=79	=79	=79	=79	=79	=79	=79	=79	=79	=79	=79	=79
8ee	8c	8C	8e	8G 8e	8c	8G	8G	8ee	8ee	8b-	8G	8G	4dd	4dd	8cc
8r	8r	8r	8r	8r	8r	8r	8r	8r	8r	8r	8r	8r	.	.	8r
4ccc	8.c	16C	16ff	16f 16A-	16c	16F	16F	4ccc	4ff	4a-	4F	4F	8.cc	8.cc	8.cc
.	.	16C	16cc	16A- 16f	16c	16F	16F	.	.	.	.	.	.	.	.
.	.	16C	16a-	16f 16A-	16c	16F	16F	.	.	.	.	.	.	.	.
.	16c	16C	16f	16A- 16f	16c	16F	16F	.	.	.	.	.	16cc	16cc	16cc
8ee	8c	8C	8e	8G 8e	8c	8G	8G	8ee	8ee	8b-	8G	8G	4dd	4dd	8cc
8r	8r	8r	8r	8r	8r	8r	8r	8r	8r	8r	8r	8r	.	.	8r
4ccc	8.c	16C	16cc	16a- 16cc	16c	16F	16F	4ccc	4ff	4aa-	4F	4F	8.cc	8.cc	8.cc
.	.	16C	16ff	16cc 16a-	16c	16F	16F	.	.	.	.	.	.	.	.
.	.	16C	16aa-	16cc 16a-	16c	16F	16F	.	.	.	.	.	.	.	.
.	16c	16C	16ccc	16a- 16cc	16c	16F	16F	.	.	.	.	.	16cc	16cc	16cc
=80	=80	=80	=80	=80	=80	=80	=80	=80	=80	=80	=80	=80	=80	=80	=80
2ddd-	4g	4C	2ddd-	2b- 2g	2E	2E	2E	2ddd-	2bb-	2gg	2E	2E	4dd	4dd	4g
.	2.r	2.r	.	.	.	.	.	.	.	.	.	.	2.r	2.r	2.r
2r	.	.	4r	2r	2r	2r	2r	2r	2r	2r	2r	2r	.	.	.
.	.	.	8.g	.	.	.	.	.	.	.	.	.	.	.	.
.	.	.	16a	.	.	.	.	.	.	.	.	.	.	.	.
=81	=81	=81	=81	=81	=81	=81	=81	=81	=81	=81	=81	=81	=81	=81	=81
1r	1r	1r	4b-	2d-	1r	4G	4G	1r	1r	1r	1r	1r	1r	1r	1r
.	.	.	4b-	.	.	4G-	4G-	.	.	.	.	.	.	.	.
.	.	.	4b-	2r	.	4F	4F	.	.	.	.	.	.	.	.
.	.	.	8.g	.	.	4r	4r	.	.	.	.	.	.	.	.
.	.	.	16a-	.	.	.	.	.	.	.	.	.	.	.	.
=82	=82	=82	=82	=82	=82	=82	=82	=82	=82	=82	=82	=82	=82	=82	=82
1r	1r	1r	4b-	2.g	2.r	4E	4E	1r	1r	1r	1r	1r	1r	1r	1r
.	.	.	4b-	.	.	4E-	4E-	.	.	.	.	.	.	.	.
.	.	.	4b-	.	.	4D	4D	.	.	.	.	.	.	.	.
.	.	.	4b	4a-	4a-	4D-	4D-	.	.	.	.	.	.	.	.
=83	=83	=83	=83	=83	=83	=83	=83	=83	=83	=83	=83	=83	=83	=83	=83
1r	1r	1r	4cc	4a-	2f	1C	1C	1r	1r	1r	1r	1r	1r	1r	1r
.	.	.	4a-	4f	.	.	.	.	.	.	.	.	.	.	.
.	.	.	4b-	4g	4c	.	.	.	.	.	.	.	.	.	.
.	.	.	4e	4e	4B-	.	.	.	.	.	.	.	.	.	.
=84	=84	=84	=84	=84	=84	=84	=84	=84	=84	=84	=84	=84	=84	=84	=84
2.r	2.r	2.r	2g	2e	2B-	4FF	4FF	2.r	2.r	2.r	2.r	2.r	2.r	2.r	2.r
.	.	.	.	.	.	4F	4F	.	.	.	.	.	.	.	.
.	.	.	4f	4f	4A-	4FF	4FF	.	.	.	.	.	.	.	.
4r	4r	4r	16a	16a	4r	4r	4r	4r	4r	4r	4r	4r	4r	4r	4r
.	.	.	16b-	16b-	.	.	.	.	.	.	.	.	.	.	.
.	.	.	16g	16g	.	.	.	.	.	.	.	.	.	.	.
.	.	.	16a	16a	.	.	.	.	.	.	.	.	.	.	.
=85	=85	=85	=85	=85	=85	=85	=85	=85	=85	=85	=85	=85	=85	=85	=85
4ff	1r	1r	16f	16f	4f 4A	4F	4F	4ff	4ff	4a	4F	4F	4cc	4e	1r
.	.	.	16g	16g	.	.	.	.	.	.	.	.	.	.	.
.	.	.	16a	16a	.	.	.	.	.	.	.	.	.	.	.
.	.	.	16b-	16b-	.	.	.	.	.	.	.	.	.	.	.
8r	.	.	16cc	16cc	8r	8r	8r	8r	8r	8r	8r	8r	8r	8r	.
.	.	.	16a	16a	.	.	.	.	.	.	.	.	.	.	.
8gg	.	.	16b-	16b-	8e 8G	8C	8C	8gg	8ee	8b-	8C	8C	8dd	8g	.
.	.	.	16g	16g	.	.	.	.	.	.	.	.	.	.	.
4aa	.	.	16a	16a	4A 4f	4F	4F	4aa	4ff	4a	4F	4F	4ee	4cc	.
.	.	.	16cc	16cc	.	.	.	.	.	.	.	.	.	.	.
.	.	.	16dd	16dd	.	.	.	.	.	.	.	.	.	.	.
.	.	.	16ee	16ee	.	.	.	.	.	.	.	.	.	.	.
8r	.	.	16ff	16ff	8r	8r	8r	8r	8r	8r	8r	8r	8r	8r	.
.	.	.	16ee	16ee	.	.	.	.	.	.	.	.	.	.	.
8ff	.	.	16ff	16ff	8d 8b-	8BB-	8BB-	8ff	8dd	8b-	8BB-	8BB-	8cc	8cc	.
.	.	.	16dd	16dd	.	.	.	.	.	.	.	.	.	.	.
=86	=86	=86	=86	=86	=86	=86	=86	=86	=86	=86	=86	=86	=86	=86	=86
4fff	1r	1r	16cc	16cc	4a 4f	4F	4F	4fff	4cc	4a	4F	4F	4cc	4cc	1r
.	.	.	16aa	16aa	.	.	.	.	.	.	.	.	.	.	.
.	.	.	16gg	16gg	.	.	.	.	.	.	.	.	.	.	.
.	.	.	16ff	16ff	.	.	.	.	.	.	.	.	.	.	.
2r	.	.	16ee	16ee	2r	2r	2r	2r	2r	2r	2r	2r	2r	2r	.
.	.	.	16dd	16dd	.	.	.	.	.	.	.	.	.	.	.
.	.	.	16cc	16cc	.	.	.	.	.	.	.	.	.	.	.
.	.	.	16b-	16b-	.	.	.	.	.	.	.	.	.	.	.
.	.	.	16a	16a	.	.	.	.	.	.	.	.	.	.	.
.	.	.	16cc	16cc	.	.	.	.	.	.	.	.	.	.	.
.	.	.	16ff	16ff	.	.	.	.	.	.	.	.	.	.	.
.	.	.	16aa	16aa	.	.	.	.	.	.	.	.	.	.	.
8ccc	.	.	16gg	16gg	8cc 8e	8B-	8B-	8ccc	8gg	8ee	8B-	8B-	8dd	8g	.
.	.	.	16ff#	16ff#	.	.	.	.	.	.	.	.	.	.	.
8r	.	.	16gg	16gg	8r	8r	8r	8r	8r	8r	8r	8r	8r	8r	.
.	.	.	16ccc	16ccc	.	.	.	.	.	.	.	.	.	.	.
=87	=87	=87	=87	=87	=87	=87	=87	=87	=87	=87	=87	=87	=87	=87	=87
8ccc	2.r	2.r	16ff	16ff	8f 8cc	8A	8A	8ccc	8ff	8cc	8A	8A	8ee	8cc	2.r
.	.	.	16ee	16ee	.	.	.	.	.	.	.	.	.	.	.
8r	.	.	16ff	16ff	8r	8r	8r	8r	8r	8r	8r	8r	8r	8r	.
.	.	.	16ccc	16ccc	.	.	.	.	.	.	.	.	.	.	.
8ccc	.	.	16ee	16ee	8cc 8e	8G	8G	8ccc	8ee	8cc	8G	8G	8dd	8dd	.
.	.	.	16gg	16gg	.	.	.	.	.	.	.	.	.	.	.
8r	.	.	16ff	16ff	8r	8r	8r	8r	8r	8r	8r	8r	8r	8r	.
.	.	.	16ee	16ee	.	.	.	.	.	.	.	.	.	.	.
8ccc	.	.	16dd	16dd	8cc 8d	8F	8F	8ccc	8dd	8cc	8F	8F	8cc	8cc	.
.	.	.	16aa	16aa	.	.	.	.	.	.	.	.	.	.	.
8r	.	.	16gg	16gg	8r	8r	8r	8r	8r	8r	8r	8r	8r	8r	.
.	.	.	16ff	16ff	.	.	.	.	.	.	.	.	.	.	.
8ff	4g	4GG	16ee	16ee	8b 8d	8G	8G	8ff	8gg	8b	8G	8G	8dd	8dd	4dd
.	.	.	16dd	16dd	.	.	.	.	.	.	.	.	.	.	.
8r	.	.	16cc	16cc	8r	8r	8r	8r	8r	8r	8r	8r	8r	8r	.
.	.	.	16b	16b	.	.	.	.	.	.	.	.	.	.	.
=88	=88	=88	=88	=88	=88	=88	=88	=88	=88	=88	=88	=88	=88	=88	=88
4ee	4cc	4C	16cc	16cc	4cc 4e	4C	4C	4ee	4cc	4cc	4C	4C	4dd	4g	4ee
.	.	.	16dd	16dd	.	.	.	.	.	.	.	.	.	.	.
.	.	.	16ee	16ee	.	.	.	.	.	.	.	.	.	.	.
.	.	.	16ff	16ff	.	.	.	.	.	.	.	.	.	.	.
2r	2.r	2.r	16gg	16gg	2.r	2.r	2.r	2r	2r	2r	2.r	2.r	2r	2r	2.r
.	.	.	16ee	16ee	.	.	.	.	.	.	.	.	.	.	.
.	.	.	16ff	16ff	.	.	.	.	.	.	.	.	.	.	.
.	.	.	16dd	16dd	.	.	.	.	.	.	.	.	.	.	.
.	.	.	16cc	16cc	.	.	.	.	.	.	.	.	.	.	.
.	.	.	16dd	16dd	.	.	.	.	.	.	.	.	.	.	.
.	.	.	16b-	16b-	.	.	.	.	.	.	.	.	.	.	.
.	.	.	16cc	16cc	.	.	.	.	.	.	.	.	.	.	.
8aa	.	.	16a	16a	.	.	.	8aa	8aa	8cc	.	.	8ee	8cc	.
.	.	.	16b-	16b-	.	.	.	.	.	.	.	.	.	.	.
8gg	.	.	16g	16g	.	.	.	8gg	8gg	8b-	.	.	8dd	8g	.
.	.	.	16a	16a	.	.	.	.	.	.	.	.	.	.	.
=89	=89	=89	=89	=89	=89	=89	=89	=89	=89	=89	=89	=89	=89	=89	=89
8ff	1r	1r	16f	16f	4f 4A	4F	4F	8ff	8ff	8a	4F	4F	8cc	8e	1r
.	.	.	16g	16g	.	.	.	.	.	.	.	.	.	.	.
8r	.	.	16a	16a	.	.	.	8r	8r	8r	.	.	8r	8r	.
.	.	.	16b-	16b-	.	.	.	.	.	.	.	.	.	.	.
8ccc	.	.	16cc	16cc	8r	8r	8r	8ccc	8ccc	8aa	8r	8r	8gg	8ee	.
.	.	.	16a	16a	.	.	.	.	.	.	.	.	.	.	.
8bb-	.	.	16b-	16b-	8e 8G	8C	8C	8bb-	8bb-	8gg	8C	8C	8ff	8dd	.
.	.	.	16g	16g	.	.	.	.	.	.	.	.	.	.	.
8aa	.	.	16a	16a	4f 4A	4F	4F	8aa	8aa	8ff	4F	4F	8ee	8cc	.
.	.	.	16cc	16cc	.	.	.	.	.	.	.	.	.	.	.
8r	.	.	16ff	16ff	.	.	.	8r	8r	8r	.	.	8r	8r	.
.	.	.	16gg	16gg	.	.	.	.	.	.	.	.	.	.	.
8aa	.	.	16aa	16aa	4r	4r	4r	8aa	8aa	8ff	4r	4r	8ee	8cc	.
.	.	.	16ff	16ff	.	.	.	.	.	.	.	.	.	.	.
8gg	.	.	16gg	16gg	.	.	.	8gg	8gg	8ee	.	.	8dd	8dd	.
.	.	.	16ee	16ee	.	.	.	.	.	.	.	.	.	.	.
=90	=90	=90	=90	=90	=90	=90	=90	=90	=90	=90	=90	=90	=90	=90	=90
2ff	1r	1r	8ff	16dd	4r	4r	4r	2ff	2ff	2dd	4r	4r	4cc	4cc	1r
.	.	.	.	16cc#	.	.	.	.	.	.	.	.	.	.	.
.	.	.	8ff	16dd	.	.	.	.	.	.	.	.	.	.	.
.	.	.	.	16cc#	.	.	.	.	.	.	.	.	.	.	.
.	.	.	8r	16dd	8g#	8G#	8G#	.	.	.	8G#	8G#	2.r	2.r	.
.	.	.	.	16ff	.	.	.	.	.	.	.	.	.	.	.
.	.	.	8ff	16ee	8r	8r	8r	.	.	.	8r	8r	.	.	.
.	.	.	.	16dd	.	.	.	.	.	.	.	.	.	.	.
4ee	.	.	8ee	16cc	8a	8A	8A	4ee	4ee	[2cc	8A	8A	.	.	.
.	.	.	.	16b	.	.	.	.	.	.	.	.	.	.	.
.	.	.	8ee	16cc	8r	8r	8r	.	.	.	8r	8r	.	.	.
.	.	.	.	16b	.	.	.	.	.	.	.	.	.	.	.
4aa	.	.	8r	16cc	8f#	8F#	8F#	4aa	4ee-	.	8F#	8F#	.	.	.
.	.	.	.	16ee-	.	.	.	.	.	.	.	.	.	.	.
.	.	.	8ee-	16dd	8r	8r	8r	.	.	.	8r	8r	.	.	.
.	.	.	.	16cc	.	.	.	.	.	.	.	.	.	.	.
=91	=91	=91	=91	=91	=91	=91	=91	=91	=91	=91	=91	=91	=91	=91	=91
2gg	2r	2r	16dd	8c	8g	8G	8G	2gg	1dd	2cc]	2G	2G	2r	2r	2r
.	.	.	16cc#	.	.	.	.	.	.	.	.	.	.	.	.
.	.	.	16dd	8cc	8g	8G	8G	.	.	.	.	.	.	.	.
.	.	.	16cc#	.	.	.	.	.	.	.	.	.	.	.	.
.	.	.	16dd	8cc	8g	8G	8G	.	.	.	.	.	.	.	.
.	.	.	16cc#	.	.	.	.	.	.	.	.	.	.	.	.
.	.	.	16dd	8cc	8g	8G	8G	.	.	.	.	.	.	.	.
.	.	.	16cc#	.	.	.	.	.	.	.	.	.	.	.	.
2ff	2g	4GG	16dd	8b	8g	8G	8G	2ff	.	2b	2GG	2GG	2dd	2dd	2dd
.	.	.	16ee	.	.	.	.	.	.	.	.	.	.	.	.
.	.	.	16ff	8b	8g	8G	8G	.	.	.	.	.	.	.	.
.	.	.	16ee	.	.	.	.	.	.	.	.	.	.	.	.
.	.	8GG	16gg	8b	8g	8G	8G	.	.	.	.	.	.	.	.
.	.	.	16ff	.	.	.	.	.	.	.	.	.	.	.	.
.	.	8GG	16aa	8b	8g	8G	8G	.	.	.	.	.	.	.	.
.	.	.	16gg	.	.	.	.	.	.	.	.	.	.	.	.
=92	=92	=92	=92	=92	=92	=92	=92	=92	=92	=92	=92	=92	=92	=92	=92
4ee	8cc	8C	16cc	16cc	8c	8C	8C	4ee	16cc	16cc	8C	8C	8dd	8g	8ee
.	.	.	16ee	16g	.	.	.	.	16ee	16ee	.	.	.	.	.
.	8cc	8C	16gg	16e	8c	8C	8C	.	16gg	16gg	8C	8C	8dd	8g	8ee
.	.	.	16ee	16g	.	.	.	.	16ee	16ee	.	.	.	.	.
4ccc	8cc	8C	16gg	16e	8c	8C	8C	4ccc	16gg	16gg	8C	8C	8dd	8g	8ee
.	.	.	16ee	16g	.	.	.	.	16ee	16ee	.	.	.	.	.
.	8cc	8C	16gg	16e	8c	8C	8C	.	16gg	16gg	8C	8C	8dd	8g	8ee
.	.	.	16ee	16g	.	.	.	.	16ee	16ee	.	.	.	.	.
4ccc	4cc	4C	8cc	8e	8c	4C	4C	4ccc	4cc	4cc	4C	4C	4dd	4g	4ee
.	.	.	8r	4.r	4.r	.	.	.	.	.	.	.	.	.	.
4r	4r	4r	16cc	.	.	4r	4r	4r	4r	4r	4r	4r	4r	4r	4r
.	.	.	16a	.	.	.	.	.	.	.	.	.	.	.	.
.	.	.	16b-	.	.	.	.	.	.	.	.	.	.	.	.
.	.	.	16g	.	.	.	.	.	.	.	.	.	.	.	.
=93	=93	=93	=93	=93	=93	=93	=93	=93	=93	=93	=93	=93	=93	=93	=93
1r	1r	1r	16f	8f 8A	4f 4A	4F	4F	1r	1r	1r	1r	1r	1r	1r	1r
.	.	.	16g	.	.	.	.	.	.	.	.	.	.	.	.
.	.	.	16a	4r	.	.	.	.	.	.	.	.	.	.	.
.	.	.	16b-	.	.	.	.	.	.	.	.	.	.	.	.
.	.	.	16cc	.	8r	8r	8r	.	.	.	.	.	.	.	.
.	.	.	16a	.	.	.	.	.	.	.	.	.	.	.	.
.	.	.	16b-	8e 8G	8B- 8e	8C	8C	.	.	.	.	.	.	.	.
.	.	.	16g	.	.	.	.	.	.	.	.	.	.	.	.
.	.	.	16a	8A 8f	4A 4f	4F	4F	.	.	.	.	.	.	.	.
.	.	.	16cc	.	.	.	.	.	.	.	.	.	.	.	.
.	.	.	16dd	4r	.	.	.	.	.	.	.	.	.	.	.
.	.	.	16ee	.	.	.	.	.	.	.	.	.	.	.	.
.	.	.	16ff	.	8r	8r	8r	.	.	.	.	.	.	.	.
.	.	.	16ee	.	.	.	.	.	.	.	.	.	.	.	.
.	.	.	16ff	8dd 8f	8B- 8f	8BB-	8BB-	.	.	.	.	.	.	.	.
.	.	.	16dd	.	.	.	.	.	.	.	.	.	.	.	.
=94	=94	=94	=94	=94	=94	=94	=94	=94	=94	=94	=94	=94	=94	=94	=94
1r	1r	1r	16cc	8f 8cc	4A 4f	4F	4F	1r	1r	1r	1r	1r	1r	1r	1r
.	.	.	16aa	.	.	.	.	.	.	.	.	.	.	.	.
.	.	.	16gg	3..r	.	.	.	.	.	.	.	.	.	.	.
.	.	.	16ff	.	.	.	.	.	.	.	.	.	.	.	.
.	.	.	16ee	.	2r	2r	2r	.	.	.	.	.	.	.	.
.	.	.	16dd	.	.	.	.	.	.	.	.	.	.	.	.
.	.	.	16cc	.	.	.	.	.	.	.	.	.	.	.	.
.	.	.	16b-	.	.	.	.	.	.	.	.	.	.	.	.
.	.	.	16a	.	.	.	.	.	.	.	.	.	.	.	.
.	.	.	16cc	.	.	.	.	.	.	.	.	.	.	.	.
.	.	.	16ff	.	.	.	.	.	.	.	.	.	.	.	.
.	.	.	16aa	.	.	.	.	.	.	.	.	.	.	.	.
.	.	.	.	24r	.	.	.	.	.	.	.	.	.	.	.
.	.	.	16gg	4cc 4e	4b-	4B-	4B-	.	.	.	.	.	.	.	.
.	.	.	16ff#	.	.	.	.	.	.	.	.	.	.	.	.
.	.	.	16gg	.	.	.	.	.	.	.	.	.	.	.	.
.	.	.	16ccc	.	.	.	.	.	.	.	.	.	.	.	.
=95	=95	=95	=95	=95	=95	=95	=95	=95	=95	=95	=95	=95	=95	=95	=95
1r	1r	1r	16ff	4cc 4f	4a	4A	4A	1r	1r	1r	1r	1r	1r	1r	1r
.	.	.	16ee	.	.	.	.	.	.	.	.	.	.	.	.
.	.	.	16ff	.	.	.	.	.	.	.	.	.	.	.	.
.	.	.	16ccc	.	.	.	.	.	.	.	.	.	.	.	.
.	.	.	16ee	4g 4cc	4g	4G	4G	.	.	.	.	.	.	.	.
.	.	.	16gg	.	.	.	.	.	.	.	.	.	.	.	.
.	.	.	16ff	.	.	.	.	.	.	.	.	.	.	.	.
.	.	.	16ee	.	.	.	.	.	.	.	.	.	.	.	.
.	.	.	16dd	4a 4f	4f	4F	4F	.	.	.	.	.	.	.	.
.	.	.	16aa	.	.	.	.	.	.	.	.	.	.	.	.
.	.	.	16gg	.	.	.	.	.	.	.	.	.	.	.	.
.	.	.	16ff	.	.	.	.	.	.	.	.	.	.	.	.
.	.	.	16ee	4G 4d 4b	4g	4G	4G	.	.	.	.	.	.	.	.
.	.	.	16dd	.	.	.	.	.	.	.	.	.	.	.	.
.	.	.	16cc	.	.	.	.	.	.	.	.	.	.	.	.
.	.	.	16b	.	.	.	.	.	.	.	.	.	.	.	.
=96	=96	=96	=96	=96	=96	=96	=96	=96	=96	=96	=96	=96	=96	=96	=96
1r	1r	1r	16cc	4G 4e 4cc	4c	4C	4C	1r	1r	1r	1r	1r	1r	1r	1r
.	.	.	16dd	.	.	.	.	.	.	.	.	.	.	.	.
.	.	.	16ee	.	.	.	.	.	.	.	.	.	.	.	.
.	.	.	16ff	.	.	.	.	.	.	.	.	.	.	.	.
.	.	.	16gg	2r	2.r	2.r	2.r	.	.	.	.	.	.	.	.
.	.	.	16ee	.	.	.	.	.	.	.	.	.	.	.	.
.	.	.	16ff	.	.	.	.	.	.	.	.	.	.	.	.
.	.	.	16dd	.	.	.	.	.	.	.	.	.	.	.	.
.	.	.	16cc	.	.	.	.	.	.	.	.	.	.	.	.
.	.	.	16dd	.	.	.	.	.	.	.	.	.	.	.	.
.	.	.	16b-	.	.	.	.	.	.	.	.	.	.	.	.
.	.	.	16cc	.	.	.	.	.	.	.	.	.	.	.	.
.	.	.	16a	8a 8f	.	.	.	.	.	.	.	.	.	.	.
.	.	.	16b-	.	.	.	.	.	.	.	.	.	.	.	.
.	.	.	16g	8c 8g	.	.	.	.	.	.	.	.	.	.	.
.	.	.	16a	.	.	.	.	.	.	.	.	.	.	.	.
=97	=97	=97	=97	=97	=97	=97	=97	=97	=97	=97	=97	=97	=97	=97	=97
1r	1r	1r	16f	4f 4A	4A 4f	4F	4F	1r	1r	1r	1r	1r	1r	1r	1r
.	.	.	16g	.	.	.	.	.	.	.	.	.	.	.	.
.	.	.	16a	.	.	.	.	.	.	.	.	.	.	.	.
.	.	.	16b-	.	.	.	.	.	.	.	.	.	.	.	.
.	.	.	16cc	8a 8cc	4r	4r	4r	.	.	.	.	.	.	.	.
.	.	.	16a	.	.	.	.	.	.	.	.	.	.	.	.
.	.	.	16b-	8b- 8g	.	.	.	.	.	.	.	.	.	.	.
.	.	.	16g	.	.	.	.	.	.	.	.	.	.	.	.
.	.	.	16a	4a 4f	4A 4f	4F	4F	.	.	.	.	.	.	.	.
.	.	.	16cc	.	.	.	.	.	.	.	.	.	.	.	.
.	.	.	16ff	.	.	.	.	.	.	.	.	.	.	.	.
.	.	.	16gg	.	.	.	.	.	.	.	.	.	.	.	.
.	.	.	16aa	4r	4r	4r	4r	.	.	.	.	.	.	.	.
.	.	.	16ff	.	.	.	.	.	.	.	.	.	.	.	.
.	.	.	16gg	.	.	.	.	.	.	.	.	.	.	.	.
.	.	.	16ee	.	.	.	.	.	.	.	.	.	.	.	.
=98	=98	=98	=98	=98	=98	=98	=98	=98	=98	=98	=98	=98	=98	=98	=98
1r	1r	1r	8ff	16dd	4r	4r	4r	1r	1r	1r	1r	1r	1r	1r	1r
.	.	.	.	16cc#	.	.	.	.	.	.	.	.	.	.	.
.	.	.	8ff	16dd	.	.	.	.	.	.	.	.	.	.	.
.	.	.	.	16cc#	.	.	.	.	.	.	.	.	.	.	.
.	.	.	8r	16dd	4g#	4G#	4G#	.	.	.	.	.	.	.	.
.	.	.	.	16ff	.	.	.	.	.	.	.	.	.	.	.
.	.	.	8ff	16ee	.	.	.	.	.	.	.	.	.	.	.
.	.	.	.	16dd	.	.	.	.	.	.	.	.	.	.	.
.	.	.	8ee	16cc	4a	4A	4A	.	.	.	.	.	.	.	.
.	.	.	.	16b	.	.	.	.	.	.	.	.	.	.	.
.	.	.	8ee	16cc	.	.	.	.	.	.	.	.	.	.	.
.	.	.	.	16b	.	.	.	.	.	.	.	.	.	.	.
.	.	.	8r	16cc	4f#	4F#	4F#	.	.	.	.	.	.	.	.
.	.	.	.	16ee-	.	.	.	.	.	.	.	.	.	.	.
.	.	.	8ee-	16dd	.	.	.	.	.	.	.	.	.	.	.
.	.	.	.	16cc	.	.	.	.	.	.	.	.	.	.	.
=99	=99	=99	=99	=99	=99	=99	=99	=99	=99	=99	=99	=99	=99	=99	=99
1r	1r	1r	16dd	8c	2g	2G	2G	1r	1r	1r	1r	1r	1r	1r	1r
.	.	.	16cc#	.	.	.	.	.	.	.	.	.	.	.	.
.	.	.	16dd	8cc	.	.	.	.	.	.	.	.	.	.	.
.	.	.	16cc#	.	.	.	.	.	.	.	.	.	.	.	.
.	.	.	16dd	8cc	.	.	.	.	.	.	.	.	.	.	.
.	.	.	16cc#	.	.	.	.	.	.	.	.	.	.	.	.
.	.	.	16dd	8cc	.	.	.	.	.	.	.	.	.	.	.
.	.	.	16cc#	.	.	.	.	.	.	.	.	.	.	.	.
.	.	.	16dd	8b	2f	2GG	2GG	.	.	.	.	.	.	.	.
.	.	.	16ee	.	.	.	.	.	.	.	.	.	.	.	.
.	.	.	16ff	8b	.	.	.	.	.	.	.	.	.	.	.
.	.	.	16ee	.	.	.	.	.	.	.	.	.	.	.	.
.	.	.	16gg	8b	.	.	.	.	.	.	.	.	.	.	.
.	.	.	16ff	.	.	.	.	.	.	.	.	.	.	.	.
.	.	.	16aa	8b	.	.	.	.	.	.	.	.	.	.	.
.	.	.	16gg	.	.	.	.	.	.	.	.	.	.	.	.
=100	=100	=100	=100	=100	=100	=100	=100	=100	=100	=100	=100	=100	=100	=100	=100
1r	1r	1r	16cc	16cc	4e	4C	4C	1r	1r	1r	1r	1r	1r	1r	1r
.	.	.	16ee	16g	.	.	.	.	.	.	.	.	.	.	.
.	.	.	16gg	16e	.	.	.	.	.	.	.	.	.	.	.
.	.	.	16ee	16g	.	.	.	.	.	.	.	.	.	.	.
.	.	.	16gg	16e	4c	4C	4C	.	.	.	.	.	.	.	.
.	.	.	16ee	16g	.	.	.	.	.	.	.	.	.	.	.
.	.	.	16gg	16e	.	.	.	.	.	.	.	.	.	.	.
.	.	.	16ee	16g	.	.	.	.	.	.	.	.	.	.	.
.	.	.	8cc	8e	4c	4C	4C	.	.	.	.	.	.	.	.
.	.	.	4.r	8r	.	.	.	.	.	.	.	.	.	.	.
.	.	.	.	16e	4cc	16C	4r	.	.	.	.	.	.	.	.
.	.	.	.	16g	.	16E	.	.	.	.	.	.	.	.	.
.	.	.	.	16f	.	16D	.	.	.	.	.	.	.	.	.
.	.	.	.	16a	.	16F	.	.	.	.	.	.	.	.	.
=101	=101	=101	=101	=101	=101	=101	=101	=101	=101	=101	=101	=101	=101	=101	=101
1r	1r	1r	[3..cc	16g	8b-	16E	4C	1r	1r	1r	1r	1r	1r	1r	1r
.	.	.	.	16f	.	16D	.	.	.	.	.	.	.	.	.
.	.	.	.	16e	8r	16C	.	.	.	.	.	.	.	.	.
.	.	.	.	16f	.	16D	.	.	.	.	.	.	.	.	.
.	.	.	.	16g	8b-	16E	4r	.	.	.	.	.	.	.	.
.	.	.	.	16b-	.	16G	.	.	.	.	.	.	.	.	.
.	.	.	.	16a	8a	16F	.	.	.	.	.	.	.	.	.
.	.	.	.	16cc	.	16A	.	.	.	.	.	.	.	.	.
.	.	.	.	16b-	8g	16G	4C	.	.	.	.	.	.	.	.
.	.	.	.	16a	.	16F	.	.	.	.	.	.	.	.	.
.	.	.	24cc]	.	.	.	.	.	.	.	.	.	.	.	.
.	.	.	8cc	16g	8r	16E	.	.	.	.	.	.	.	.	.
.	.	.	.	16f	.	16F	.	.	.	.	.	.	.	.	.
.	.	.	8cc	16e	8g	16G	4r	.	.	.	.	.	.	.	.
.	.	.	.	16g	.	16B-	.	.	.	.	.	.	.	.	.
.	.	.	8cc	16f	8f	16A	.	.	.	.	.	.	.	.	.
.	.	.	.	16a	.	16c	.	.	.	.	.	.	.	.	.
=102	=102	=102	=102	=102	=102	=102	=102	=102	=102	=102	=102	=102	=102	=102	=102
1r	1r	1r	2ee	2g	4e	16B-	2C	1r	1r	1r	1r	1r	1r	1r	1r
.	.	.	.	.	.	16c	.	.	.	.	.	.	.	.	.
.	.	.	.	.	.	16B-	.	.	.	.	.	.	.	.	.
.	.	.	.	.	.	16c	.	.	.	.	.	.	.	.	.
.	.	.	.	.	4g	16B-	.	.	.	.	.	.	.	.	.
.	.	.	.	.	.	16c	.	.	.	.	.	.	.	.	.
.	.	.	.	.	.	16B-	.	.	.	.	.	.	.	.	.
.	.	.	.	.	.	16c	.	.	.	.	.	.	.	.	.
.	.	.	8ff	8f	4c	4A	4F	.	.	.	.	.	.	.	.
.	.	.	8r	8r	.	.	.	.	.	.	.	.	.	.	.
.	.	.	16ee	4c	4A	4AA	4AA	.	.	.	.	.	.	.	.
.	.	.	16ff	.	.	.	.	.	.	.	.	.	.	.	.
.	.	.	16aa	.	.	.	.	.	.	.	.	.	.	.	.
.	.	.	16ff	.	.	.	.	.	.	.	.	.	.	.	.
=103	=103	=103	=103	=103	=103	=103	=103	=103	=103	=103	=103	=103	=103	=103	=103
1r	1r	1r	16cc#	4d	4B-	4BB-	4BB-	1r	1r	1r	1r	1r	1r	1r	1r
.	.	.	16dd	.	.	.	.	.	.	.	.	.	.	.	.
.	.	.	16ff	.	.	.	.	.	.	.	.	.	.	.	.
.	.	.	16dd	.	.	.	.	.	.	.	.	.	.	.	.
.	.	.	16a	3..r	2.r	2r	2r	.	.	.	.	.	.	.	.
.	.	.	16b-	.	.	.	.	.	.	.	.	.	.	.	.
.	.	.	16dd	.	.	.	.	.	.	.	.	.	.	.	.
.	.	.	16b-	.	.	.	.	.	.	.	.	.	.	.	.
.	.	.	16f#	.	.	.	.	.	.	.	.	.	.	.	.
.	.	.	16g	.	.	.	.	.	.	.	.	.	.	.	.
.	.	.	16a	.	.	.	.	.	.	.	.	.	.	.	.
.	.	.	16b-	.	.	.	.	.	.	.	.	.	.	.	.
.	.	.	16cc#	.	.	4BB-	4BB-	.	.	.	.	.	.	.	.
.	.	.	16dd	.	.	.	.	.	.	.	.	.	.	.	.
.	.	.	.	24r	.	.	.	.	.	.	.	.	.	.	.
.	.	.	16b-	8d	.	.	.	.	.	.	.	.	.	.	.
.	.	.	16g	.	.	.	.	.	.	.	.	.	.	.	.
=104	=104	=104	=104	=104	=104	=104	=104	=104	=104	=104	=104	=104	=104	=104	=104
1r	1r	1r	2f	2A	2.r	4C	4C	1r	2.r	1r	1r	1r	1r	1r	1r
.	.	.	.	.	.	4c	4c	.	.	.	.	.	.	.	.
.	.	.	8e	8G	.	8C	8C	.	.	.	.	.	.	.	.
.	.	.	8r	8r	.	8r	4.r	.	.	.	.	.	.	.	.
.	.	.	16f	[4f	4a	4e-	.	.	4a	.	.	.	.	.	.
.	.	.	16a	.	.	.	.	.	.	.	.	.	.	.	.
.	.	.	16cc	.	.	.	.	.	.	.	.	.	.	.	.
.	.	.	16cc	.	.	.	.	.	.	.	.	.	.	.	.
=105	=105	=105	=105	=105	=105	=105	=105	=105	=105	=105	=105	=105	=105	=105	=105
1r	1r	1r	16cc	4f]	4b-	4d	1r	1r	8b-	1r	1r	1r	1r	1r	1r
.	.	.	16b-	.	.	.	.	.	.	.	.	.	.	.	.
.	.	.	16b-	.	.	.	.	.	2r	.	.	.	.	.	.
.	.	.	16b-	.	.	.	.	.	.	.	.	.	.	.	.
.	.	.	16b-	2f	2r	4c	.	.	.	.	.	.	.	.	.
.	.	.	16a	.	.	.	.	.	.	.	.	.	.	.	.
.	.	.	16a	.	.	.	.	.	.	.	.	.	.	.	.
.	.	.	16a	.	.	.	.	.	.	.	.	.	.	.	.
.	.	.	16a	.	.	4B-	.	.	.	.	.	.	.	.	.
.	.	.	16g	.	.	.	.	.	.	.	.	.	.	.	.
.	.	.	16g	.	.	.	.	.	8r	.	.	.	.	.	.
.	.	.	16g	.	.	.	.	.	.	.	.	.	.	.	.
.	.	.	16f	[4f	4a	4e-	.	.	4a	.	.	.	.	.	.
.	.	.	16a	.	.	.	.	.	.	.	.	.	.	.	.
.	.	.	16cc	.	.	.	.	.	.	.	.	.	.	.	.
.	.	.	16cc	.	.	.	.	.	.	.	.	.	.	.	.
=106	=106	=106	=106	=106	=106	=106	=106	=106	=106	=106	=106	=106	=106	=106	=106
1r	1r	1r	16cc	4f]	4b-	4d	1r	1r	8b-	1r	1r	1r	1r	1r	1r
.	.	.	16dd	.	.	.	.	.	.	.	.	.	.	.	.
.	.	.	16b-	.	.	.	.	.	2..r	.	.	.	.	.	.
.	.	.	16b-	.	.	.	.	.	.	.	.	.	.	.	.
.	.	.	16b-	2f	2.r	4c	.	.	.	.	.	.	.	.	.
.	.	.	16cc	.	.	.	.	.	.	.	.	.	.	.	.
.	.	.	16a	.	.	.	.	.	.	.	.	.	.	.	.
.	.	.	16a	.	.	.	.	.	.	.	.	.	.	.	.
.	.	.	16a	.	.	4B-	.	.	.	.	.	.	.	.	.
.	.	.	16g	.	.	.	.	.	.	.	.	.	.	.	.
.	.	.	16f#	.	.	.	.	.	.	.	.	.	.	.	.
.	.	.	16g	.	.	.	.	.	.	.	.	.	.	.	.
.	.	.	16a	4r	.	4r	.	.	.	.	.	.	.	.	.
.	.	.	16b-	.	.	.	.	.	.	.	.	.	.	.	.
.	.	.	16cc	.	.	.	.	.	.	.	.	.	.	.	.
.	.	.	16dd	.	.	.	.	.	.	.	.	.	.	.	.
=107	=107	=107	=107	=107	=107	=107	=107	=107	=107	=107	=107	=107	=107	=107	=107
1r	1r	1r	2f	4r	4r	4r	4r	1r	1r	1r	1r	1r	1r	1r	1r
.	.	.	.	4A	4f	2C	2C	.	.	.	.	.	.	.	.
.	.	.	8.g	2B-	2e	.	.	.	.	.	.	.	.	.	.
.	.	.	16f	.	.	.	.	.	.	.	.	.	.	.	.
.	.	.	8.g	.	.	4C	4C	.	.	.	.	.	.	.	.
.	.	.	16cc	.	.	.	.	.	.	.	.	.	.	.	.
=108	=108	=108	=108	=108	=108	=108	=108	=108	=108	=108	=108	=108	=108	=108	=108
1r	1r	1r	16f	4A	4f	4F	4F	1r	1r	1r	1r	1r	1r	1r	1r
.	.	.	16a	.	.	.	.	.	.	.	.	.	.	.	.
.	.	.	16b-	.	.	.	.	.	.	.	.	.	.	.	.
.	.	.	16g	.	.	.	.	.	.	.	.	.	.	.	.
.	.	.	16f	2.r	2.r	2.r	2.r	.	.	.	.	.	.	.	.
.	.	.	16cc	.	.	.	.	.	.	.	.	.	.	.	.
.	.	.	16dd	.	.	.	.	.	.	.	.	.	.	.	.
.	.	.	16b-	.	.	.	.	.	.	.	.	.	.	.	.
.	.	.	16a	.	.	.	.	.	.	.	.	.	.	.	.
.	.	.	16ff	.	.	.	.	.	.	.	.	.	.	.	.
.	.	.	16aa	.	.	.	.	.	.	.	.	.	.	.	.
.	.	.	16ff	.	.	.	.	.	.	.	.	.	.	.	.
.	.	.	16ee	.	.	.	.	.	.	.	.	.	.	.	.
.	.	.	16gg	.	.	.	.	.	.	.	.	.	.	.	.
.	.	.	16bb-	.	.	.	.	.	.	.	.	.	.	.	.
.	.	.	16gg	.	.	.	.	.	.	.	.	.	.	.	.
=109	=109	=109	=109	=109	=109	=109	=109	=109	=109	=109	=109	=109	=109	=109	=109
1r	1r	1r	16ff	2.r	2.r	2.r	1r	1r	2.r	1r	1r	1r	1r	1r	1r
.	.	.	16aa	.	.	.	.	.	.	.	.	.	.	.	.
.	.	.	16ff	.	.	.	.	.	.	.	.	.	.	.	.
.	.	.	16aa	.	.	.	.	.	.	.	.	.	.	.	.
.	.	.	16gg	.	.	.	.	.	.	.	.	.	.	.	.
.	.	.	16ff	.	.	.	.	.	.	.	.	.	.	.	.
.	.	.	16ee	.	.	.	.	.	.	.	.	.	.	.	.
.	.	.	16dd	.	.	.	.	.	.	.	.	.	.	.	.
.	.	.	16cc	.	.	.	.	.	.	.	.	.	.	.	.
.	.	.	16b-	.	.	.	.	.	.	.	.	.	.	.	.
.	.	.	16a	.	.	.	.	.	.	.	.	.	.	.	.
.	.	.	16g	.	.	.	.	.	.	.	.	.	.	.	.
.	.	.	16f	[4f	4a	4e-	.	.	4a	.	.	.	.	.	.
.	.	.	16a	.	.	.	.	.	.	.	.	.	.	.	.
.	.	.	16cc	.	.	.	.	.	.	.	.	.	.	.	.
.	.	.	16cc	.	.	.	.	.	.	.	.	.	.	.	.
=110	=110	=110	=110	=110	=110	=110	=110	=110	=110	=110	=110	=110	=110	=110	=110
1r	1r	1r	16cc	4f]	4b-	4d	1r	1r	8b-	1r	1r	1r	1r	1r	1r
.	.	.	16ff	.	.	.	.	.	.	.	.	.	.	.	.
.	.	.	16b-	.	.	.	.	.	2r	.	.	.	.	.	.
.	.	.	16b-	.	.	.	.	.	.	.	.	.	.	.	.
.	.	.	16b-	2f	2r	4c	.	.	.	.	.	.	.	.	.
.	.	.	16ff	.	.	.	.	.	.	.	.	.	.	.	.
.	.	.	16a	.	.	.	.	.	.	.	.	.	.	.	.
.	.	.	16a	.	.	.	.	.	.	.	.	.	.	.	.
.	.	.	16a	.	.	4B-	.	.	.	.	.	.	.	.	.
.	.	.	16g	.	.	.	.	.	.	.	.	.	.	.	.
.	.	.	16g	.	.	.	.	.	8r	.	.	.	.	.	.
.	.	.	16g	.	.	.	.	.	.	.	.	.	.	.	.
.	.	.	16f	[4f	4a	4e-	.	.	4a	.	.	.	.	.	.
.	.	.	16a	.	.	.	.	.	.	.	.	.	.	.	.
.	.	.	16cc	.	.	.	.	.	.	.	.	.	.	.	.
.	.	.	16cc	.	.	.	.	.	.	.	.	.	.	.	.
=111	=111	=111	=111	=111	=111	=111	=111	=111	=111	=111	=111	=111	=111	=111	=111
1r	1r	1r	16cc	4f]	4b-	4d	2.r	1r	8b-	1r	1r	1r	1r	1r	1r
.	.	.	16dd	.	.	.	.	.	.	.	.	.	.	.	.
.	.	.	16b-	.	.	.	.	.	2..r	.	.	.	.	.	.
.	.	.	16b-	.	.	.	.	.	.	.	.	.	.	.	.
.	.	.	16b-	2f	2r	4c	.	.	.	.	.	.	.	.	.
.	.	.	16cc	.	.	.	.	.	.	.	.	.	.	.	.
.	.	.	16a	.	.	.	.	.	.	.	.	.	.	.	.
.	.	.	16a	.	.	.	.	.	.	.	.	.	.	.	.
.	.	.	16a	.	.	4B-	.	.	.	.	.	.	.	.	.
.	.	.	16g	.	.	.	.	.	.	.	.	.	.	.	.
.	.	.	16g	.	.	.	.	.	.	.	.	.	.	.	.
.	.	.	16g	.	.	.	.	.	.	.	.	.	.	.	.
.	.	.	16f	4f	4a-	4BB	4BB	.	.	.	.	.	.	.	.
.	.	.	16dd	.	.	.	.	.	.	.	.	.	.	.	.
.	.	.	16dd	.	.	.	.	.	.	.	.	.	.	.	.
.	.	.	16dd	.	.	.	.	.	.	.	.	.	.	.	.
=112	=112	=112	=112	=112	=112	=112	=112	=112	=112	=112	=112	=112	=112	=112	=112
1r	1r	1r	16dd	2e	2g	4C	4C	1r	1r	1r	1r	1r	1r	1r	1r
.	.	.	16cc	.	.	.	.	.	.	.	.	.	.	.	.
.	.	.	16cc	.	.	.	.	.	.	.	.	.	.	.	.
.	.	.	16cc	.	.	.	.	.	.	.	.	.	.	.	.
.	.	.	16cc	.	.	4C#	4C#	.	.	.	.	.	.	.	.
.	.	.	16b-	.	.	.	.	.	.	.	.	.	.	.	.
.	.	.	16b-	.	.	.	.	.	.	.	.	.	.	.	.
.	.	.	16b-	.	.	.	.	.	.	.	.	.	.	.	.
.	.	.	16b-	4f	4f	4D	4D	.	.	.	.	.	.	.	.
.	.	.	16a	.	.	.	.	.	.	.	.	.	.	.	.
.	.	.	16a	.	.	.	.	.	.	.	.	.	.	.	.
.	.	.	16a	.	.	.	.	.	.	.	.	.	.	.	.
.	.	.	16dd	4A-	4d	4BB	4BB	.	.	.	.	.	.	.	.
.	.	.	16ee	.	.	.	.	.	.	.	.	.	.	.	.
.	.	.	16ff	.	.	.	.	.	.	.	.	.	.	.	.
.	.	.	16ff	.	.	.	.	.	.	.	.	.	.	.	.
=113	=113	=113	=113	=113	=113	=113	=113	=113	=113	=113	=113	=113	=113	=113	=113
1r	1r	1r	2f	2A	2f	1C	1C	1r	1r	1r	1r	1r	1r	1r	1r
.	.	.	8.g	2B-	2e	.	.	.	.	.	.	.	.	.	.
.	.	.	16f	.	.	.	.	.	.	.	.	.	.	.	.
.	.	.	8.g	.	.	.	.	.	.	.	.	.	.	.	.
.	.	.	16cc	.	.	.	.	.	.	.	.	.	.	.	.
=114	=114	=114	=114	=114	=114	=114	=114	=114	=114	=114	=114	=114	=114	=114	=114
2.r	1r	1r	8cc	4r	4r	4r	4r	2.r	1r	1r	2.r	2.r	1r	1r	1r
.	.	.	8f	.	.	.	.	.	.	.	.	.	.	.	.
.	.	.	2.r	4f 4A	4c	4FF	4FF	.	.	.	.	.	.	.	.
.	.	.	.	4f 4A	4A	4FF	4FF	.	.	.	.	.	.	.	.
4ccc	.	.	.	4cc	16E	16C	16C	4ccc	.	.	16C	16C	.	.	.
.	.	.	.	.	16G	16E	16E	.	.	.	16E	16E	.	.	.
.	.	.	.	.	16F	16D	16D	.	.	.	16D	16D	.	.	.
.	.	.	.	.	16A	16F	16F	.	.	.	16F	16F	.	.	.
=115	=115	=115	=115	=115	=115	=115	=115	=115	=115	=115	=115	=115	=115	=115	=115
8bb-	1r	1r	8cc	8b-	8G	16E	16E	8bb-	1gg	1cc	16E	16E	1g	1G	1r
.	.	.	.	.	.	16D	16D	.	.	.	16D	16D	.	.	.
8r	.	.	4cc	8r	8r	16C	16C	8r	.	.	16C	16C	.	.	.
.	.	.	.	.	.	16D	16D	.	.	.	16D	16D	.	.	.
8bb-	.	.	.	16c	16E	16E	16E	8bb-	.	.	16E	16E	.	.	.
.	.	.	.	16e	16G	16G	16G	.	.	.	16G	16G	.	.	.
8aa	.	.	4cc	16d	16F	16F	16F	8aa	.	.	16F	16F	.	.	.
.	.	.	.	16f	16A	16A	16A	.	.	.	16A	16A	.	.	.
8gg	.	.	.	16e	8G	16G	16G	8gg	.	.	16G	16G	.	.	.
.	.	.	.	16d	.	16F	16F	.	.	.	16F	16F	.	.	.
8r	.	.	4cc	16c	8r	16E	16E	8r	.	.	16E	16E	.	.	.
.	.	.	.	16d	.	16F	16F	.	.	.	16F	16F	.	.	.
8gg	.	.	.	16e	16G	16G	16G	8gg	.	.	16G	16G	.	.	.
.	.	.	.	16g	16B-	16B-	16B-	.	.	.	16B-	16B-	.	.	.
8ff	.	.	8cc	16f	16A	16A	16A	8ff	.	.	16A	16A	.	.	.
.	.	.	.	16a	16F	16c	16c	.	.	.	16c	16c	.	.	.
=116	=116	=116	=116	=116	=116	=116	=116	=116	=116	=116	=116	=116	=116	=116	=116
2ee	1r	1r	2ee	2g	2C	16B-	16B-	2ee	2gg	2cc	16B-	16B-	2dd	2g	1r
.	.	.	.	.	.	16c	16c	.	.	.	16c	16c	.	.	.
.	.	.	.	.	.	16B-	16B-	.	.	.	16B-	16B-	.	.	.
.	.	.	.	.	.	16c	16c	.	.	.	16c	16c	.	.	.
.	.	.	.	.	.	16B-	16B-	.	.	.	16B-	16B-	.	.	.
.	.	.	.	.	.	16c	16c	.	.	.	16c	16c	.	.	.
.	.	.	.	.	.	16B-	16B-	.	.	.	16B-	16B-	.	.	.
.	.	.	.	.	.	16c	16c	.	.	.	16c	16c	.	.	.
8ff	.	.	8ff	8a	8F	8A	8A	8ff	8aa	8ff	8A	8A	8ee	8cc	.
8r	.	.	8r	8r	8r	8r	8r	8r	4.r	4.r	4.r	4.r	4.r	4.r	.
16ee	.	.	16ee	[4f	4A	4AA	4AA	16ee	.	.	.	.	.	.	.
16ff	.	.	16ff	.	.	.	.	16ff	.	.	.	.	.	.	.
16aa	.	.	16aa	.	.	.	.	16aa	.	.	.	.	.	.	.
16ff	.	.	16ff	.	.	.	.	16ff	.	.	.	.	.	.	.
=117	=117	=117	=117	=117	=117	=117	=117	=117	=117	=117	=117	=117	=117	=117	=117
16cc#	1r	1r	16cc#	8f]	4B-	4BB-	4BB-	16cc#	1r	1r	1r	1r	1r	1r	1r
16dd	.	.	16dd	.	.	.	.	16dd	.	.	.	.	.	.	.
16ff	.	.	16ff	2.r	.	.	.	16ff	.	.	.	.	.	.	.
16dd	.	.	16dd	.	.	.	.	16dd	.	.	.	.	.	.	.
16a	.	.	16a	.	2r	2r	2r	16a	.	.	.	.	.	.	.
16b-	.	.	16b-	.	.	.	.	16b-	.	.	.	.	.	.	.
16dd	.	.	16dd	.	.	.	.	16dd	.	.	.	.	.	.	.
16b-	.	.	16b-	.	.	.	.	16b-	.	.	.	.	.	.	.
16f#	.	.	16f#	.	.	.	.	16f#	.	.	.	.	.	.	.
16g	.	.	16g	.	.	.	.	16g	.	.	.	.	.	.	.
16a	.	.	16a	.	.	.	.	16a	.	.	.	.	.	.	.
16b-	.	.	16b-	.	.	.	.	16b-	.	.	.	.	.	.	.
16cc#	.	.	16cc#	.	4B-	4BB-	4BB-	16cc#	.	.	.	.	.	.	.
16dd	.	.	16dd	.	.	.	.	16dd	.	.	.	.	.	.	.
16b-	.	.	16b-	16d	.	.	.	16b-	.	.	.	.	.	.	.
16g	.	.	16g	16B-	.	.	.	16g	.	.	.	.	.	.	.
=118	=118	=118	=118	=118	=118	=118	=118	=118	=118	=118	=118	=118	=118	=118	=118
2f	1r	1r	2f	2A	4c	4C	4C	2f	2.r	2.r	1r	1r	2.r	2.r	1r
.	.	.	.	.	4C	4c	4c	.	.	.	.	.	.	.	.
8e	.	.	8e	4G	4C	4C	4C	8e	.	.	.	.	.	.	.
8r	.	.	8r	.	.	.	.	8r	.	.	.	.	.	.	.
16ff	.	.	16f	[4f	4a	4e-	4e-	16ff	4aa	4a	.	.	8.cc	8.c	.
16aa	.	.	16a	.	.	.	.	16aa	.	.	.	.	.	.	.
16ccc	.	.	16cc	.	.	.	.	16ccc	.	.	.	.	.	.	.
16ccc	.	.	16cc	.	.	.	.	16ccc	.	.	.	.	16cc	16c	.
=119	=119	=119	=119	=119	=119	=119	=119	=119	=119	=119	=119	=119	=119	=119	=119
16ccc	1r	1r	16cc	8f]	4b-	4d	4d	16ccc	4bb-	4b-	1f	1f	2.cc	2.c	1r
16bb-	.	.	16b-	.	.	.	.	16bb-	.	.	.	.	.	.	.
16bb-	.	.	16b-	4f	.	.	.	16bb-	.	.	.	.	.	.	.
16bb-	.	.	16b-	.	.	.	.	16bb-	.	.	.	.	.	.	.
16bb-	.	.	16b-	.	2r	4c	4c	16bb-	2r	2r	.	.	.	.	.
16aa	.	.	16a	.	.	.	.	16aa	.	.	.	.	.	.	.
16aa	.	.	16a	4f	.	.	.	16aa	.	.	.	.	.	.	.
16aa	.	.	16a	.	.	.	.	16aa	.	.	.	.	.	.	.
16aa	.	.	16a	.	.	4B-	4B-	16aa	.	.	.	.	.	.	.
16gg	.	.	16g	.	.	.	.	16gg	.	.	.	.	.	.	.
16gg	.	.	16g	4f	.	.	.	16gg	.	.	.	.	.	.	.
16gg	.	.	16g	.	.	.	.	16gg	.	.	.	.	.	.	.
16ff	.	.	16f	.	4a	4e-	4e-	16ff	4aa	4a	.	.	8.cc	8.c	.
16aa	.	.	16a	.	.	.	.	16aa	.	.	.	.	.	.	.
16ccc	.	.	16cc	[8f	.	.	.	16ccc	.	.	.	.	.	.	.
16ccc	.	.	16cc	.	.	.	.	16ccc	.	.	.	.	16cc	16c	.
=120	=120	=120	=120	=120	=120	=120	=120	=120	=120	=120	=120	=120	=120	=120	=120
16ccc	1r	1r	16cc	8f]	4b-	4d	4d	16ccc	4bb-	4b-	2f	2f	2cc	2c	1r
16ddd	.	.	16dd	.	.	.	.	16ddd	.	.	.	.	.	.	.
16bb-	.	.	16b-	4f	.	.	.	16bb-	.	.	.	.	.	.	.
16bb-	.	.	16b-	.	.	.	.	16bb-	.	.	.	.	.	.	.
16bb-	.	.	16b-	.	2.r	4c	4c	16bb-	2.r	2.r	.	.	.	.	.
16ccc	.	.	16cc	.	.	.	.	16ccc	.	.	.	.	.	.	.
16aa	.	.	16a	8f	.	.	.	16aa	.	.	.	.	.	.	.
16aa	.	.	16a	.	.	.	.	16aa	.	.	.	.	.	.	.
16aa	.	.	16a	4f	.	4B-	4B-	16aa	.	.	2r	2r	2r	2r	.
16gg	.	.	16g	.	.	.	.	16gg	.	.	.	.	.	.	.
16ff#	.	.	16f#	.	.	.	.	16ff#	.	.	.	.	.	.	.
16gg	.	.	16g	.	.	.	.	16gg	.	.	.	.	.	.	.
16aa	.	.	16a	4r	.	4r	4r	16aa	.	.	.	.	.	.	.
16bb-	.	.	16b-	.	.	.	.	16bb-	.	.	.	.	.	.	.
16ccc	.	.	16cc	.	.	.	.	16ccc	.	.	.	.	.	.	.
16ddd	.	.	16dd	.	.	.	.	16ddd	.	.	.	.	.	.	.
=121	=121	=121	=121	=121	=121	=121	=121	=121	=121	=121	=121	=121	=121	=121	=121
2ff	1r	1r	2f	4r	4r	4r	4r	2ff	1r	1r	1r	1r	1r	1r	1r
.	.	.	.	4A	4f	2C	2C	.	.	.	.	.	.	.	.
8.gg	.	.	8.g	2B-	2e	.	.	8.gg	.	.	.	.	.	.	.
16ff	.	.	16f	.	.	.	.	16ff	.	.	.	.	.	.	.
8.gg	.	.	8.g	.	.	4C	4C	8.gg	.	.	.	.	.	.	.
16aa	.	.	16a	.	.	.	.	16aa	.	.	.	.	.	.	.
=122	=122	=122	=122	=122	=122	=122	=122	=122	=122	=122	=122	=122	=122	=122	=122
4ff	1r	1r	16f	4A	4f	4F	4F	4ff	1r	1r	1r	1r	1r	1r	1r
.	.	.	16a	.	.	.	.	.	.	.	.	.	.	.	.
.	.	.	16b-	.	.	.	.	.	.	.	.	.	.	.	.
.	.	.	16g	.	.	.	.	.	.	.	.	.	.	.	.
2.r	.	.	16f	2.r	2.r	2.r	2.r	2.r	.	.	.	.	.	.	.
.	.	.	16cc	.	.	.	.	.	.	.	.	.	.	.	.
.	.	.	16dd	.	.	.	.	.	.	.	.	.	.	.	.
.	.	.	16b-	.	.	.	.	.	.	.	.	.	.	.	.
.	.	.	16a	.	.	.	.	.	.	.	.	.	.	.	.
.	.	.	16ff	.	.	.	.	.	.	.	.	.	.	.	.
.	.	.	16aa	.	.	.	.	.	.	.	.	.	.	.	.
.	.	.	16ff	.	.	.	.	.	.	.	.	.	.	.	.
.	.	.	16ee	.	.	.	.	.	.	.	.	.	.	.	.
.	.	.	16gg	.	.	.	.	.	.	.	.	.	.	.	.
.	.	.	16bb-	.	.	.	.	.	.	.	.	.	.	.	.
.	.	.	16gg	.	.	.	.	.	.	.	.	.	.	.	.
=123	=123	=123	=123	=123	=123	=123	=123	=123	=123	=123	=123	=123	=123	=123	=123
2.r	1r	1r	16ff	2.r	2.r	2.r	2.r	2.r	2.r	2.r	2.r	2.r	2.r	2.r	1r
.	.	.	16aa	.	.	.	.	.	.	.	.	.	.	.	.
.	.	.	16ff	.	.	.	.	.	.	.	.	.	.	.	.
.	.	.	16aa	.	.	.	.	.	.	.	.	.	.	.	.
.	.	.	16gg	.	.	.	.	.	.	.	.	.	.	.	.
.	.	.	16ff	.	.	.	.	.	.	.	.	.	.	.	.
.	.	.	16ee	.	.	.	.	.	.	.	.	.	.	.	.
.	.	.	16dd	.	.	.	.	.	.	.	.	.	.	.	.
.	.	.	16cc	.	.	.	.	.	.	.	.	.	.	.	.
.	.	.	16b-	.	.	.	.	.	.	.	.	.	.	.	.
.	.	.	16a	.	.	.	.	.	.	.	.	.	.	.	.
.	.	.	16g	.	.	.	.	.	.	.	.	.	.	.	.
16ff	.	.	16f	[4f	4a	4e-	4e-	16ff	4aa	4a	4A	4A	8.cc	8.c	.
16aa	.	.	16a	.	.	.	.	16aa	.	.	.	.	.	.	.
16ccc	.	.	16cc	.	.	.	.	16ccc	.	.	.	.	.	.	.
16ccc	.	.	16cc	.	.	.	.	16ccc	.	.	.	.	16cc	16c	.
=124	=124	=124	=124	=124	=124	=124	=124	=124	=124	=124	=124	=124	=124	=124	=124
16ccc	1r	1r	16cc	8f]	4b-	4d	4d	16ccc	4bb-	4b-	4B-	4B-	2.cc	2.c	1r
16bb-	.	.	16ff	.	.	.	.	16bb-	.	.	.	.	.	.	.
16bb-	.	.	16b-	4f	.	.	.	16bb-	.	.	.	.	.	.	.
16bb-	.	.	16b-	.	.	.	.	16bb-	.	.	.	.	.	.	.
16bb-	.	.	16b-	.	2r	4c	4c	16bb-	2r	2r	2r	2r	.	.	.
16aa	.	.	16ff	.	.	.	.	16aa	.	.	.	.	.	.	.
16aa	.	.	16a	4f	.	.	.	16aa	.	.	.	.	.	.	.
16aa	.	.	16a	.	.	.	.	16aa	.	.	.	.	.	.	.
16aa	.	.	16a	.	.	4B-	4B-	16aa	.	.	.	.	.	.	.
16gg	.	.	16g	.	.	.	.	16gg	.	.	.	.	.	.	.
16gg	.	.	16g	4f	.	.	.	16gg	.	.	.	.	.	.	.
16gg	.	.	16g	.	.	.	.	16gg	.	.	.	.	.	.	.
16ff	.	.	16f	.	4a	4e-	4e-	16ff	4aa	4a	4A	4A	8.cc	8.c	.
16aa	.	.	16a	.	.	.	.	16aa	.	.	.	.	.	.	.
16ccc	.	.	16cc	[8f	.	.	.	16ccc	.	.	.	.	.	.	.
16ccc	.	.	16cc	.	.	.	.	16ccc	.	.	.	.	16cc	16c	.
=125	=125	=125	=125	=125	=125	=125	=125	=125	=125	=125	=125	=125	=125	=125	=125
16ccc	1r	1r	16cc	8f]	4b-	4d	4d	16ccc	4bb-	4b-	4B-	4B-	2.cc	2.c	1r
16ddd	.	.	16dd	.	.	.	.	16ddd	.	.	.	.	.	.	.
16bb-	.	.	16b-	4f	.	.	.	16bb-	.	.	.	.	.	.	.
16bb-	.	.	16b-	.	.	.	.	16bb-	.	.	.	.	.	.	.
16bb-	.	.	16b-	.	2r	4c	4c	16bb-	2r	2r	2r	2r	.	.	.
16ccc	.	.	16cc	.	.	.	.	16ccc	.	.	.	.	.	.	.
16aa	.	.	16a	4f	.	.	.	16aa	.	.	.	.	.	.	.
16aa	.	.	16a	.	.	.	.	16aa	.	.	.	.	.	.	.
16aa	.	.	16a	.	.	4B-	4B-	16aa	.	.	.	.	.	.	.
16gg	.	.	16g	.	.	.	.	16gg	.	.	.	.	.	.	.
16gg	.	.	16g	4f	.	.	.	16gg	.	.	.	.	.	.	.
16gg	.	.	16g	.	.	.	.	16gg	.	.	.	.	.	.	.
16ff	.	.	16f	.	4a-	4BB	4BB	16ff	4dd	4f	4A-	4A-	4r	4r	.
16ddd	.	.	16dd	.	.	.	.	16ddd	.	.	.	.	.	.	.
16ddd	.	.	16dd	8f	.	.	.	16ddd	.	.	.	.	.	.	.
16ddd	.	.	16dd	.	.	.	.	16ddd	.	.	.	.	.	.	.
=126	=126	=126	=126	=126	=126	=126	=126	=126	=126	=126	=126	=126	=126	=126	=126
16ddd	1r	1r	16dd	8e	2g	4C	4C	16ddd	4cc	4e	2G	2G	2.r	2.r	1r
16ccc	.	.	16cc	.	.	.	.	16ccc	.	.	.	.	.	.	.
16ccc	.	.	16cc	4e	.	.	.	16ccc	.	.	.	.	.	.	.
16ccc	.	.	16cc	.	.	.	.	16ccc	.	.	.	.	.	.	.
16ccc	.	.	16cc	.	.	4C#	4C#	16ccc	2r	2r	.	.	.	.	.
16bb-	.	.	16b-	.	.	.	.	16bb-	.	.	.	.	.	.	.
16bb-	.	.	16b-	8e	.	.	.	16bb-	.	.	.	.	.	.	.
16bb-	.	.	16b-	.	.	.	.	16bb-	.	.	.	.	.	.	.
16bb-	.	.	16b-	4f	4f	4D	4D	16bb-	.	.	4F	4F	.	.	.
16aa	.	.	16a	.	.	.	.	16aa	.	.	.	.	.	.	.
16aa	.	.	16a	.	.	.	.	16aa	.	.	.	.	.	.	.
16aa	.	.	16a	.	.	.	.	16aa	.	.	.	.	.	.	.
16ddd	.	.	16dd	4A-	4d	4BB	4BB	16ddd	4ff	4a-	4d	4d	8.cc	8.c	.
16eee	.	.	16ee	.	.	.	.	16eee	.	.	.	.	.	.	.
16fff	.	.	16ff	.	.	.	.	16fff	.	.	.	.	.	.	.
16fff	.	.	16ff	.	.	.	.	16fff	.	.	.	.	16cc	16c	.
=127	=127	=127	=127	=127	=127	=127	=127	=127	=127	=127	=127	=127	=127	=127	=127
2ff	1r	1r	2f	2A	2f	1C	1C	2ff	4aa	4ff	2c	2c	4cc	4c	1r
.	.	.	.	.	.	.	.	.	2.r	2.r	.	.	2.r	2.r	.
8.gg	.	.	8.g	2B-	2e	.	.	8.gg	.	.	4C	4C	.	.	.
16ff	.	.	16f	.	.	.	.	16ff	.	.	.	.	.	.	.
8.gg	.	.	8.g	.	.	.	.	8.gg	.	.	4r	4r	.	.	.
16ccc	.	.	16cc	.	.	.	.	16ccc	.	.	.	.	.	.	.
=128	=128	=128	=128	=128	=128	=128	=128	=128	=128	=128	=128	=128	=128	=128	=128
8ccc	1r	1r	8cc	4A	4f	4D	4D	8ccc	1r	1r	1r	1r	1r	1r	1r
8ff	.	.	8f	.	.	.	.	8ff	.	.	.	.	.	.	.
2.r	.	.	3..r	4f 4b-	4d	4D	4D	2.r	.	.	.	.	.	.	.
.	.	.	.	4f 4b-	4d	4D	4D	.	.	.	.	.	.	.	.
.	.	.	.	4f 4b-	4d	4D	4D	.	.	.	.	.	.	.	.
.	.	.	24r	.	.	.	.	.	.	.	.	.	.	.	.
.	.	.	8dd	.	.	.	.	.	.	.	.	.	.	.	.
=129	=129	=129	=129	=129	=129	=129	=129	=129	=129	=129	=129	=129	=129	=129	=129
1r	1r	1r	8dd	4r	4r	4r	4r	1r	1r	1r	1r	1r	1r	1r	1r
.	.	.	8g	.	.	.	.	.	.	.	.	.	.	.	.
.	.	.	3..r	4b- 4g	4c	4E	4E	.	.	.	.	.	.	.	.
.	.	.	.	4b- 4g	4c	4E	4E	.	.	.	.	.	.	.	.
.	.	.	.	4b- 4g	4c	4E	4E	.	.	.	.	.	.	.	.
.	.	.	24r	.	.	.	.	.	.	.	.	.	.	.	.
.	.	.	8bb-	.	.	.	.	.	.	.	.	.	.	.	.
=130	=130	=130	=130	=130	=130	=130	=130	=130	=130	=130	=130	=130	=130	=130	=130
1r	1r	1r	8bb-	4r	4r	4r	4r	1r	1r	1r	1r	1r	1r	1r	1r
.	.	.	8ee	.	.	.	.	.	.	.	.	.	.	.	.
.	.	.	8r	4b- 4g	4c	4E	4E	.	.	.	.	.	.	.	.
.	.	.	8gg	.	.	.	.	.	.	.	.	.	.	.	.
.	.	.	8gg	4r	4r	4r	4r	.	.	.	.	.	.	.	.
.	.	.	8b-	.	.	.	.	.	.	.	.	.	.	.	.
.	.	.	8r	4b- 4g	4c	4E	4E	.	.	.	.	.	.	.	.
.	.	.	8b-	.	.	.	.	.	.	.	.	.	.	.	.
=131	=131	=131	=131	=131	=131	=131	=131	=131	=131	=131	=131	=131	=131	=131	=131
1r	1r	1r	8a	4r	4r	4r	4r	1r	1r	1r	1r	1r	1r	1r	1r
.	.	.	8cc	.	.	.	.	.	.	.	.	.	.	.	.
.	.	.	8r	4f 4a	4c	4F	4F	.	.	.	.	.	.	.	.
.	.	.	8cc	.	.	.	.	.	.	.	.	.	.	.	.
.	.	.	8cc	4r	4r	4r	4r	.	.	.	.	.	.	.	.
.	.	.	8e	.	.	.	.	.	.	.	.	.	.	.	.
.	.	.	8r	4e 4B-	4c	4G	4G	.	.	.	.	.	.	.	.
.	.	.	8cc	.	.	.	.	.	.	.	.	.	.	.	.
=132	=132	=132	=132	=132	=132	=132	=132	=132	=132	=132	=132	=132	=132	=132	=132
2.r	1r	1r	8cc	4r	4r	4r	4r	2.r	1r	1r	1r	1r	2.r	2.r	1r
.	.	.	8f	.	.	.	.	.	.	.	.	.	.	.	.
.	.	.	8r	4c 4f	4c	4A	4A	.	.	.	.	.	.	.	.
.	.	.	8cc	.	.	.	.	.	.	.	.	.	.	.	.
.	.	.	8cc	4r	4r	4r	4r	.	.	.	.	.	.	.	.
.	.	.	8ee	.	.	.	.	.	.	.	.	.	.	.	.
4ee	.	.	8r	4G 4e	4c	4B-	4B-	4g	.	.	.	.	4dd	4g	.
.	.	.	8cc	.	.	.	.	.	.	.	.	.	.	.	.
=133	=133	=133	=133	=133	=133	=133	=133	=133	=133	=133	=133	=133	=133	=133	=133
4r	1r	1r	8cc	4r	4r	4r	4r	4r	1r	1r	4.r	1r	4r	4r	1r
.	.	.	8ff	.	.	.	.	.	.	.	.	.	.	.	.
4ff	.	.	8r	4f 4c	4F	4A	4A	4cc	.	.	.	.	4ee	4cc	.
.	.	.	8ccc	.	.	.	.	.	.	.	8c	.	.	.	.
4r	.	.	8ccc	4r	4r	4r	4r	4r	.	.	8c	.	4r	4r	.
.	.	.	8ee	.	.	.	.	.	.	.	8e	.	.	.	.
4gg	.	.	8r	4G 4e	4c	4B-	4B-	4ee	.	.	8r	.	4dd	4g	.
.	.	.	8ccc	.	.	.	.	.	.	.	8c	.	.	.	.
=134	=134	=134	=134	=134	=134	=134	=134	=134	=134	=134	=134	=134	=134	=134	=134
4r	1r	1r	8ccc	4r	4r	4r	4r	4r	1r	1r	8c	1r	4r	4r	1r
.	.	.	8ff	.	.	.	.	.	.	.	8f	.	.	.	.
4aa	.	.	8r	4f 4c	4c	4A	4A	4ff	.	.	8r	.	4cc	4e	.
.	.	.	8ccc	.	.	.	.	.	.	.	8c	.	.	.	.
4r	.	.	8ccc	4r	4r	4r	4r	4r	.	.	8c	.	4r	4r	.
.	.	.	8gg	.	.	.	.	.	.	.	8g	.	.	.	.
4bb-	.	.	8r	4c 4g	4c	4E	4E	4gg	.	.	8r	.	4dd	4g	.
.	.	.	8ccc	.	.	.	.	.	.	.	8c	.	.	.	.
=135	=135	=135	=135	=135	=135	=135	=135	=135	=135	=135	=135	=135	=135	=135	=135
4aa	1r	1r	8ccc	8a	4F	1r	1r	4ff	1ccc	1aa	4F	1r	[1ee	[1cc	1r
.	.	.	8ccc	8aa	.	.	.	.	.	.	.	.	.	.	.
2.r	.	.	8r	8r	4A	.	.	2.r	.	.	4A	.	.	.	.
.	.	.	8aa	8ff	.	.	.	.	.	.	.	.	.	.	.
.	.	.	8r	8r	4c	.	.	.	.	.	4c	.	.	.	.
.	.	.	8ff	8cc	.	.	.	.	.	.	.	.	.	.	.
.	.	.	8r	8r	4f	.	.	.	.	.	4f	.	.	.	.
.	.	.	8cc	8a	.	.	.	.	.	.	.	.	.	.	.
=136	=136	=136	=136	=136	=136	=136	=136	=136	=136	=136	=136	=136	=136	=136	=136
1r	1r	1r	8r	8r	4F	4FF	4FF	1r	1aa	1ff	4F	1r	1ee_	1cc_	1r
.	.	.	8a	8f	.	.	.	.	.	.	.	.	.	.	.
.	.	.	8r	8r	4A	4AA	4AA	.	.	.	2.r	.	.	.	.
.	.	.	8f	8c	.	.	.	.	.	.	.	.	.	.	.
.	.	.	8r	8r	4c	4C	4C	.	.	.	.	.	.	.	.
.	.	.	8c	8A	.	.	.	.	.	.	.	.	.	.	.
.	.	.	8r	8r	4f	4F	4F	.	.	.	.	.	.	.	.
.	.	.	8A	8A	.	.	.	.	.	.	.	.	.	.	.
=137	=137	=137	=137	=137	=137	=137	=137	=137	=137	=137	=137	=137	=137	=137	=137
2..r	1r	1r	16e-	16A	16c	8F	8F	1r	2ee-	2cc	1r	1r	4ee]	4cc]	1r
.	.	.	16e-	16A	16c	.	.	.	.	.	.	.	.	.	.
.	.	.	16e-	16A	16c	8F	8F	.	.	.	.	.	.	.	.
.	.	.	16e-	16A	16c	.	.	.	.	.	.	.	.	.	.
.	.	.	16e-	16A	16c	8F	8F	.	.	.	.	.	2.r	2.r	.
.	.	.	16e-	16A	16c	.	.	.	.	.	.	.	.	.	.
.	.	.	16e-	16A	16c	8F	8F	.	.	.	.	.	.	.	.
.	.	.	16e-	16A	16c	.	.	.	.	.	.	.	.	.	.
.	.	.	16e-	16A	16c	8F	8F	.	4..r	2r	.	.	.	.	.
.	.	.	16e-	16A	16c	.	.	.	.	.	.	.	.	.	.
.	.	.	16e-	16A	16c	8F	8F	.	.	.	.	.	.	.	.
.	.	.	16e-	16A	16c	.	.	.	.	.	.	.	.	.	.
.	.	.	16e-	16A	16c	8F	8F	.	.	.	.	.	.	.	.
.	.	.	16e-	16A	16c	.	.	.	.	.	.	.	.	.	.
16r	.	.	16e-	16A	16c	8F	8F	.	.	.	.	.	.	.	.
16bb	.	.	16e-	16A	16c	.	.	.	16b	.	.	.	.	.	.
=138	=138	=138	=138	=138	=138	=138	=138	=138	=138	=138	=138	=138	=138	=138	=138
4bb	1r	1r	16e-	16A	16c	8F	8F	1r	4b	1r	1c	1A	1r	1r	1r
.	.	.	16e-	16A	16c	.	.	.	.	.	.	.	.	.	.
.	.	.	16e-	16A	16c	8F	8F	.	.	.	.	.	.	.	.
.	.	.	16e-	16A	16c	.	.	.	.	.	.	.	.	.	.
8ccc	.	.	16e-	16A	16c	8F	8F	.	8cc	.	.	.	.	.	.
.	.	.	16e-	16A	16c	.	.	.	.	.	.	.	.	.	.
2r	.	.	16e-	16A	16c	8F	8F	.	2r	.	.	.	.	.	.
.	.	.	16e-	16A	16c	.	.	.	.	.	.	.	.	.	.
.	.	.	16e-	16A	16c	8F	8F	.	.	.	.	.	.	.	.
.	.	.	16e-	16A	16c	.	.	.	.	.	.	.	.	.	.
.	.	.	16e-	16A	16c	8F	8F	.	.	.	.	.	.	.	.
.	.	.	16e-	16A	16c	.	.	.	.	.	.	.	.	.	.
.	.	.	16e-	16A	16c	8F	8F	.	.	.	.	.	.	.	.
.	.	.	16e-	16A	16c	.	.	.	.	.	.	.	.	.	.
16r	.	.	16e-	16A	16c	8F	8F	.	16r	.	.	.	.	.	.
16bb	.	.	16e-	16A	16c	.	.	.	16b	.	.	.	.	.	.
=139	=139	=139	=139	=139	=139	=139	=139	=139	=139	=139	=139	=139	=139	=139	=139
4bb	1r	1r	16e-	16A	16c	8F	8F	1r	4b	1r	1e-	1c	1r	1r	1r
.	.	.	16e-	16A	16c	.	.	.	.	.	.	.	.	.	.
.	.	.	16e-	16A	16c	8F	8F	.	.	.	.	.	.	.	.
.	.	.	16e-	16A	16c	.	.	.	.	.	.	.	.	.	.
8ccc	.	.	16e-	16A	16c	8F	8F	.	8cc	.	.	.	.	.	.
.	.	.	16e-	16A	16c	.	.	.	.	.	.	.	.	.	.
2r	.	.	16e-	16A	16c	8F	8F	.	2r	.	.	.	.	.	.
.	.	.	16e-	16A	16c	.	.	.	.	.	.	.	.	.	.
.	.	.	16e-	16A	16c	8F	8F	.	.	.	.	.	.	.	.
.	.	.	16e-	16A	16c	.	.	.	.	.	.	.	.	.	.
.	.	.	16e-	16A	16c	8F	8F	.	.	.	.	.	.	.	.
.	.	.	16e-	16A	16c	.	.	.	.	.	.	.	.	.	.
.	.	.	16e-	16A	16c	8F	8F	.	.	.	.	.	.	.	.
.	.	.	16e-	16A	16c	.	.	.	.	.	.	.	.	.	.
16r	.	.	16e-	16A	16c	8F	8F	.	16r	.	.	.	.	.	.
16aa	.	.	16e-	16A	16c	.	.	.	16a	.	.	.	.	.	.
=140	=140	=140	=140	=140	=140	=140	=140	=140	=140	=140	=140	=140	=140	=140	=140
4aa	1r	1r	16d	16B-	16B-	8F	8F	1r	4a	1r	1d	1B-	1r	1r	1r
.	.	.	16d	16B-	16B-	.	.	.	.	.	.	.	.	.	.
.	.	.	16d	16B-	16B-	8F	8F	.	.	.	.	.	.	.	.
.	.	.	16d	16B-	16B-	.	.	.	.	.	.	.	.	.	.
8bb-	.	.	16d	16B-	16B-	8F	8F	.	8b-	.	.	.	.	.	.
.	.	.	16d	16B-	16B-	.	.	.	.	.	.	.	.	.	.
2r	.	.	16d	16B-	16B-	8F	8F	.	2r	.	.	.	.	.	.
.	.	.	16d	16B-	16B-	.	.	.	.	.	.	.	.	.	.
.	.	.	16d	16B-	16B-	8F	8F	.	.	.	.	.	.	.	.
.	.	.	16d	16B-	16B-	.	.	.	.	.	.	.	.	.	.
.	.	.	16d	16B-	16B-	8F	8F	.	.	.	.	.	.	.	.
.	.	.	16d	16B-	16B-	.	.	.	.	.	.	.	.	.	.
.	.	.	16d	16B-	16B-	8F	8F	.	.	.	.	.	.	.	.
.	.	.	16d	16B-	16B-	.	.	.	.	.	.	.	.	.	.
16r	.	.	16d	16B-	16B-	8F	8F	.	16r	.	.	.	.	.	.
16ccc#	.	.	16d	16B-	16B-	.	.	.	16cc#	.	.	.	.	.	.
=141	=141	=141	=141	=141	=141	=141	=141	=141	=141	=141	=141	=141	=141	=141	=141
4ccc#	1r	1r	16d	16B-	16B-	8F	8F	1r	4cc#	1r	1d	1B-	1r	1r	1r
.	.	.	16d	16B-	16B-	.	.	.	.	.	.	.	.	.	.
.	.	.	16d	16B-	16B-	8F	8F	.	.	.	.	.	.	.	.
.	.	.	16d	16B-	16B-	.	.	.	.	.	.	.	.	.	.
8ddd	.	.	16d	16B-	16B-	8F	8F	.	8dd	.	.	.	.	.	.
.	.	.	16d	16B-	16B-	.	.	.	.	.	.	.	.	.	.
2r	.	.	16d	16B-	16B-	8F	8F	.	2r	.	.	.	.	.	.
.	.	.	16d	16B-	16B-	.	.	.	.	.	.	.	.	.	.
.	.	.	16d	16B-	16B-	8F	8F	.	.	.	.	.	.	.	.
.	.	.	16d	16B-	16B-	.	.	.	.	.	.	.	.	.	.
.	.	.	16d	16B-	16B-	8F	8F	.	.	.	.	.	.	.	.
.	.	.	16d	16B-	16B-	.	.	.	.	.	.	.	.	.	.
.	.	.	16d	16B-	16B-	8F	8F	.	.	.	.	.	.	.	.
.	.	.	16d	16B-	16B-	.	.	.	.	.	.	.	.	.	.
16r	.	.	16d	16B-	16B-	8F	8F	.	16r	.	.	.	.	.	.
16ddd	.	.	16d	16B-	16B-	.	.	.	16dd	.	.	.	.	.	.
=142	=142	=142	=142	=142	=142	=142	=142	=142	=142	=142	=142	=142	=142	=142	=142
4ddd	1r	1r	16e	16B-	16G	8F	8F	1r	4dd	1r	1e	1G	1r	1r	1r
.	.	.	16e	16B-	16G	.	.	.	.	.	.	.	.	.	.
.	.	.	16e	16B-	16G	8F	8F	.	.	.	.	.	.	.	.
.	.	.	16e	16B-	16G	.	.	.	.	.	.	.	.	.	.
8gg	.	.	16e	16B-	16G	8F	8F	.	8g	.	.	.	.	.	.
.	.	.	16e	16B-	16G	.	.	.	.	.	.	.	.	.	.
2r	.	.	16e	16B-	16G	8F	8F	.	2r	.	.	.	.	.	.
.	.	.	16e	16B-	16G	.	.	.	.	.	.	.	.	.	.
.	.	.	16e	16B-	16G	8F	8F	.	.	.	.	.	.	.	.
.	.	.	16e	16B-	16G	.	.	.	.	.	.	.	.	.	.
.	.	.	16e	16B-	16G	8F	8F	.	.	.	.	.	.	.	.
.	.	.	16e	16B-	16G	.	.	.	.	.	.	.	.	.	.
.	.	.	16e	16B-	16G	8F	8F	.	.	.	.	.	.	.	.
.	.	.	16e	16B-	16G	.	.	.	.	.	.	.	.	.	.
16r	.	.	16e	16B-	16G	8F	8F	.	16r	.	.	.	.	.	.
16ccc#	.	.	16e	16B-	16G	.	.	.	16cc#	.	.	.	.	.	.
=143	=143	=143	=143	=143	=143	=143	=143	=143	=143	=143	=143	=143	=143	=143	=143
8ccc#	1r	1r	16e	16B-	16G	8F	8F	2..r	8cc#	1r	1e	1G	1r	1r	1r
.	.	.	16e	16B-	16G	.	.	.	.	.	.	.	.	.	.
8ddd	.	.	16e	16B-	16G	8F	8F	.	8dd	.	.	.	.	.	.
.	.	.	16e	16B-	16G	.	.	.	.	.	.	.	.	.	.
8gg	.	.	16e	16B-	16G	8F	8F	.	8g	.	.	.	.	.	.
.	.	.	16e	16B-	16G	.	.	.	.	.	.	.	.	.	.
2r	.	.	16e	16B-	16G	8F	8F	.	2r	.	.	.	.	.	.
.	.	.	16e	16B-	16G	.	.	.	.	.	.	.	.	.	.
.	.	.	16e	16B-	16G	8F	8F	.	.	.	.	.	.	.	.
.	.	.	16e	16B-	16G	.	.	.	.	.	.	.	.	.	.
.	.	.	16e	16B-	16G	8F	8F	.	.	.	.	.	.	.	.
.	.	.	16e	16B-	16G	.	.	.	.	.	.	.	.	.	.
.	.	.	8e	16B-	16G	8F	8F	.	.	.	.	.	.	.	.
.	.	.	.	16B-	16G	.	.	.	.	.	.	.	.	.	.
16r	.	.	8d-	16B-	16G	8F	8F	16r	16r	.	.	.	.	.	.
16eee	.	.	.	16B-	16G	.	.	16eee	16ee	.	.	.	.	.	.
=144	=144	=144	=144	=144	=144	=144	=144	=144	=144	=144	=144	=144	=144	=144	=144
[1eee	1r	1r	4d-	4B-	4G	8F	8F	[1eee	[1gg	[1ee	[1e	[1G	1r	1r	1r
.	.	.	.	.	.	8F	8F	.	.	.	.	.	.	.	.
.	.	.	8c	8A	4r	8F	8F	.	.	.	.	.	.	.	.
.	.	.	8d-	8B-	.	8F	8F	.	.	.	.	.	.	.	.
.	.	.	4d-	4B-	4G	8F	8F	.	.	.	.	.	.	.	.
.	.	.	.	.	.	8F	8F	.	.	.	.	.	.	.	.
.	.	.	8c	8A	4r	8F	8F	.	.	.	.	.	.	.	.
.	.	.	8d-	8B-	.	8F	8F	.	.	.	.	.	.	.	.
=145	=145	=145	=145	=145	=145	=145	=145	=145	=145	=145	=145	=145	=145	=145	=145
1eee]	1r	1r	2d-	2B-	2B- 2d-	1F	1F	1eee]	1gg]	1ee]	1e]	1G]	1r	1r	1r
.	.	.	4c	4c	4c	.	.	.	.	.	.	.	.	.	.
.	.	.	4B-	4d-	4d- 4B-	.	.	.	.	.	.	.	.	.	.
=146	=146	=146	=146	=146	=146	=146	=146	=146	=146	=146	=146	=146	=146	=146	=146
4fff	1r	1r	4A	4c	4c 4A	4F	4F	4fff	4ff	4aa	4f	4A	4cc	4e	1r
2.r	.	.	2r	2r	2.r	2.r	2.r	2.r	8.ccc	8.aa	2.r	2.r	2.r	2.r	.
.	.	.	.	.	.	.	.	.	16bb-	16gg	.	.	.	.	.
.	.	.	.	.	.	.	.	.	8aa	8ff	.	.	.	.	.
.	.	.	.	.	.	.	.	.	4.r	4.r	.	.	.	.	.
.	.	.	8.cc	8.a	.	.	.	.	.	.	.	.	.	.	.
.	.	.	16b-	16g	.	.	.	.	.	.	.	.	.	.	.
=147	=147	=147	=147	=147	=147	=147	=147	=147	=147	=147	=147	=147	=147	=147	=147
1r	1r	1r	8a	8f	1r	1r	1r	1r	1r	1r	4r	4r	2.r	2.r	1r
.	.	.	2..r	2..r	.	.	.	.	.	.	.	.	.	.	.
.	.	.	.	.	.	.	.	.	.	.	8.c	8.A	.	.	.
.	.	.	.	.	.	.	.	.	.	.	16B-	16G	.	.	.
.	.	.	.	.	.	.	.	.	.	.	4A	4F	.	.	.
.	.	.	.	.	.	.	.	.	.	.	4r	4r	8.cc	8.e	.
.	.	.	.	.	.	.	.	.	.	.	.	.	16cc	16e	.
=148	=148	=148	=148	=148	=148	=148	=148	=148	=148	=148	=148	=148	=148	=148	=148
2r	1r	1r	2r	2r	2r	2r	2r	2r	2r	2r	2r	2r	4cc	4e	1r
.	.	.	.	.	.	.	.	.	.	.	.	.	4r	4r	.
4ccc	.	.	4aa 4cc 4f	4aa 4cc 4f	4A 4f	4F	4F	4ccc	4aa	4cc	4F	4F	4cc	4e	.
4r	.	.	4r	4r	4r	4r	4r	4r	4r	4r	4r	4r	4r	4r	.
=149	=149	=149	=149	=149	=149	=149	=149	=149	=149	=149	=149	=149	=149	=149	=149
4aa	1r	1r	4f 4A	4f 4A	4A 4f	4FF	4FF	4aa	4ff	4a	4FF	4FF	4cc	4e	1r
2.r	.	.	2.r	2.r	2.r	2.r	2.r	2.r	2.r	2.r	2.r	2.r	2.r	2.r	.
==	==	==	==	==	==	==	==	==	==	==	==	==	==	==	==
*-	*-	*-	*-	*-	*-	*-	*-	*-	*-	*-	*-	*-	*-	*-	*-
!!!RWG1: This file contains only pitch and duration data.
!!!RWG2: Transposing instruments are not transposed.
!!!RWG3: Spines may have incompatible meters.
!!!RWG4: Durations of rests and tied notes may be interpreted.
!!!RWG: Key is interpreted using the Humdrum key tool.
!!!AFT: stage1
!!!END: 1997/04/15
!!format changes:
!!content changes:
!!public access: complete
!!!KEY: 1929750326
!!!EMD: Converted from MuseData to Humdrum Dec 16, 2000, by Andreas Kornstaedt using muse2kern.
